%%%
  VERSION:1
  LANGUAGE:ENGLISH
%%%

MODULE mHorizontal1
  PERS wobjdata wADSK0:=[FALSE,TRUE,"", [[1587.651,1696.886,924.31155],[0.0162324,0.0011719,-0.0014062,-0.9998666]],[[0,0,0],[1,0,0,0]]];
  PERS tooldata tADSK27:=[TRUE,[[-278.8697,-1.505275,239.6506],[0.7071068,0,-0.707168,0]],[40,[50,0,120],[1,0,0,0],0,0,0]];
  PROC pHorizontal1()

    VAR num fk;
    
    MoveAbsJ [[170, -20, 30, 00, 80, 0],[9E9,9E9,9E9,9E9,9E9,9E9]],v333,z1,tADSK27\WObj:=wADSK0;

    TPErase;
    
    TPReadFK fk,"Please reload 2x6s...","Complete","","","","Stop";
    
    IF fk <> 1 THEN
        Stop;
    ENDIF

    MoveJ [[1076.095,-39.022,640],[0,-0.70710678,0.70710678,0],[0,0,0,0],[9E9,9E9,9E9,9E9,9E9,9E9]],v333,z1,tADSK27\WObj:=wADSK0;
    
    Setdo Local_IO_0_DO11, 0;
    WaitTime 1;

    Setdo Local_IO_0_DO13, 0;
    WaitTime 1;
    
    Setdo Local_IO_0_DO13, 1;
    WaitTime 1;

    Setdo Local_IO_0_DO11, 1;
    WaitTime 1;
    
    TPReadFK fk,"Make sure the spindle is running in the right rpm...","Confirm","","","","Stop";
    
    IF fk <> 1 THEN
        Stop;
    ENDIF

    MoveL [[1076.095,-39.022,140],[0,-0.70710678,0.70710678,0],[0,0,0,0],[9E9,9E9,9E9,9E9,9E9,9E9]],v333,z1,tADSK27\WObj:=wADSK0;
    MoveL [[1076.095,-39.022,20.05],[0,-0.70710678,0.70710678,0],[0,0,0,0],[9E9,9E9,9E9,9E9,9E9,9E9]],v333,z1,tADSK27\WObj:=wADSK0;
    ! Lead In Move Starts
    MoveL [[1076.095,-39.022,14.604],[0,-0.70710678,0.70710678,0],[0,0,0,0],[9E9,9E9,9E9,9E9,9E9,9E9]],v107,z1,tADSK27\WObj:=wADSK0;
    MoveL [[1076.094,-39.023,14.535],[0,-0.70710678,0.70710678,0],[0,0,0,0],[9E9,9E9,9E9,9E9,9E9,9E9]],v36,z1,tADSK27\WObj:=wADSK0;
    MoveL [[1076.089,-39.027,14.465],[0,-0.70710678,0.70710678,0],[0,0,0,0],[9E9,9E9,9E9,9E9,9E9,9E9]],v36,z1,tADSK27\WObj:=wADSK0;
    MoveL [[1076.081,-39.032,14.396],[0,-0.70710678,0.70710678,0],[0,0,0,0],[9E9,9E9,9E9,9E9,9E9,9E9]],v36,z1,tADSK27\WObj:=wADSK0;
    MoveL [[1076.07,-39.04,14.328],[0,-0.70710678,0.70710678,0],[0,0,0,0],[9E9,9E9,9E9,9E9,9E9,9E9]],v36,z1,tADSK27\WObj:=wADSK0;
    MoveL [[1076.056,-39.049,14.26],[0,-0.70710678,0.70710678,0],[0,0,0,0],[9E9,9E9,9E9,9E9,9E9,9E9]],v36,z1,tADSK27\WObj:=wADSK0;
    MoveL [[1076.039,-39.061,14.194],[0,-0.70710678,0.70710678,0],[0,0,0,0],[9E9,9E9,9E9,9E9,9E9,9E9]],v36,z1,tADSK27\WObj:=wADSK0;
    MoveL [[1076.02,-39.075,14.128],[0,-0.70710678,0.70710678,0],[0,0,0,0],[9E9,9E9,9E9,9E9,9E9,9E9]],v36,z1,tADSK27\WObj:=wADSK0;
    MoveL [[1075.997,-39.091,14.065],[0,-0.70710678,0.70710678,0],[0,0,0,0],[9E9,9E9,9E9,9E9,9E9,9E9]],v36,z1,tADSK27\WObj:=wADSK0;
    MoveL [[1075.971,-39.109,14.002],[0,-0.70710678,0.70710678,0],[0,0,0,0],[9E9,9E9,9E9,9E9,9E9,9E9]],v36,z1,tADSK27\WObj:=wADSK0;
    MoveL [[1075.943,-39.13,13.942],[0,-0.70710678,0.70710678,0],[0,0,0,0],[9E9,9E9,9E9,9E9,9E9,9E9]],v36,z1,tADSK27\WObj:=wADSK0;
    MoveL [[1075.913,-39.152,13.884],[0,-0.70710678,0.70710678,0],[0,0,0,0],[9E9,9E9,9E9,9E9,9E9,9E9]],v36,z1,tADSK27\WObj:=wADSK0;
    MoveL [[1075.88,-39.177,13.827],[0,-0.70710678,0.70710678,0],[0,0,0,0],[9E9,9E9,9E9,9E9,9E9,9E9]],v36,z1,tADSK27\WObj:=wADSK0;
    MoveL [[1075.845,-39.203,13.773],[0,-0.70710678,0.70710678,0],[0,0,0,0],[9E9,9E9,9E9,9E9,9E9,9E9]],v36,z1,tADSK27\WObj:=wADSK0;
    MoveL [[1075.807,-39.232,13.722],[0,-0.70710678,0.70710678,0],[0,0,0,0],[9E9,9E9,9E9,9E9,9E9,9E9]],v36,z1,tADSK27\WObj:=wADSK0;
    MoveL [[1075.768,-39.263,13.673],[0,-0.70710678,0.70710678,0],[0,0,0,0],[9E9,9E9,9E9,9E9,9E9,9E9]],v36,z1,tADSK27\WObj:=wADSK0;
    MoveL [[1075.727,-39.295,13.627],[0,-0.70710678,0.70710678,0],[0,0,0,0],[9E9,9E9,9E9,9E9,9E9,9E9]],v36,z1,tADSK27\WObj:=wADSK0;
    MoveL [[1075.685,-39.33,13.584],[0,-0.70710678,0.70710678,0],[0,0,0,0],[9E9,9E9,9E9,9E9,9E9,9E9]],v36,z1,tADSK27\WObj:=wADSK0;
    MoveL [[1075.641,-39.366,13.544],[0,-0.70710678,0.70710678,0],[0,0,0,0],[9E9,9E9,9E9,9E9,9E9,9E9]],v36,z1,tADSK27\WObj:=wADSK0;
    MoveL [[1075.595,-39.404,13.508],[0,-0.70710678,0.70710678,0],[0,0,0,0],[9E9,9E9,9E9,9E9,9E9,9E9]],v36,z1,tADSK27\WObj:=wADSK0;
    MoveL [[1075.549,-39.444,13.474],[0,-0.70710678,0.70710678,0],[0,0,0,0],[9E9,9E9,9E9,9E9,9E9,9E9]],v36,z1,tADSK27\WObj:=wADSK0;
    MoveL [[1075.502,-39.485,13.444],[0,-0.70710678,0.70710678,0],[0,0,0,0],[9E9,9E9,9E9,9E9,9E9,9E9]],v36,z1,tADSK27\WObj:=wADSK0;
    MoveL [[1075.454,-39.528,13.417],[0,-0.70710678,0.70710678,0],[0,0,0,0],[9E9,9E9,9E9,9E9,9E9,9E9]],v36,z1,tADSK27\WObj:=wADSK0;
    MoveL [[1075.405,-39.573,13.394],[0,-0.70710678,0.70710678,0],[0,0,0,0],[9E9,9E9,9E9,9E9,9E9,9E9]],v36,z1,tADSK27\WObj:=wADSK0;
    MoveL [[1075.356,-39.618,13.375],[0,-0.70710678,0.70710678,0],[0,0,0,0],[9E9,9E9,9E9,9E9,9E9,9E9]],v36,z1,tADSK27\WObj:=wADSK0;
    MoveL [[1075.307,-39.665,13.359],[0,-0.70710678,0.70710678,0],[0,0,0,0],[9E9,9E9,9E9,9E9,9E9,9E9]],v36,z1,tADSK27\WObj:=wADSK0;
    MoveL [[1075.258,-39.713,13.347],[0,-0.70710678,0.70710678,0],[0,0,0,0],[9E9,9E9,9E9,9E9,9E9,9E9]],v36,z1,tADSK27\WObj:=wADSK0;
    MoveL [[1075.209,-39.762,13.339],[0,-0.70710678,0.70710678,0],[0,0,0,0],[9E9,9E9,9E9,9E9,9E9,9E9]],v36,z1,tADSK27\WObj:=wADSK0;
    MoveL [[1075.161,-39.812,13.335],[0,-0.70710678,0.70710678,0],[0,0,0,0],[9E9,9E9,9E9,9E9,9E9,9E9]],v36,z1,tADSK27\WObj:=wADSK0;
    MoveL [[1073.954,-41.629,13.258],[0,-0.70710678,0.70710678,0],[0,0,0,0],[9E9,9E9,9E9,9E9,9E9,9E9]],v36,z1,tADSK27\WObj:=wADSK0;
    MoveL [[1073.473,-43.757,13.182],[0,-0.70710678,0.70710678,0],[0,0,0,0],[9E9,9E9,9E9,9E9,9E9,9E9]],v36,z1,tADSK27\WObj:=wADSK0;
    MoveL [[1073.78,-45.917,13.105],[0,-0.70710678,0.70710678,0],[0,0,0,0],[9E9,9E9,9E9,9E9,9E9,9E9]],v36,z1,tADSK27\WObj:=wADSK0;
    MoveL [[1074.835,-47.826,13.029],[0,-0.70710678,0.70710678,0],[0,0,0,0],[9E9,9E9,9E9,9E9,9E9,9E9]],v36,z1,tADSK27\WObj:=wADSK0;
    MoveL [[1076.501,-49.235,12.952],[0,-0.70710678,0.70710678,0],[0,0,0,0],[9E9,9E9,9E9,9E9,9E9,9E9]],v36,z1,tADSK27\WObj:=wADSK0;
    MoveL [[1078.558,-49.96,12.875],[0,-0.70710678,0.70710678,0],[0,0,0,0],[9E9,9E9,9E9,9E9,9E9,9E9]],v36,z1,tADSK27\WObj:=wADSK0;
    MoveL [[1080.739,-49.906,12.799],[0,-0.70710678,0.70710678,0],[0,0,0,0],[9E9,9E9,9E9,9E9,9E9,9E9]],v36,z1,tADSK27\WObj:=wADSK0;
    MoveL [[1082.757,-49.08,12.722],[0,-0.70710678,0.70710678,0],[0,0,0,0],[9E9,9E9,9E9,9E9,9E9,9E9]],v36,z1,tADSK27\WObj:=wADSK0;
    MoveL [[1084.351,-47.59,12.646],[0,-0.70710678,0.70710678,0],[0,0,0,0],[9E9,9E9,9E9,9E9,9E9,9E9]],v36,z1,tADSK27\WObj:=wADSK0;
    MoveL [[1085.309,-45.63,12.569],[0,-0.70710678,0.70710678,0],[0,0,0,0],[9E9,9E9,9E9,9E9,9E9,9E9]],v36,z1,tADSK27\WObj:=wADSK0;
    MoveL [[1085.509,-43.458,12.492],[0,-0.70710678,0.70710678,0],[0,0,0,0],[9E9,9E9,9E9,9E9,9E9,9E9]],v36,z1,tADSK27\WObj:=wADSK0;
    MoveL [[1084.923,-41.357,12.416],[0,-0.70710678,0.70710678,0],[0,0,0,0],[9E9,9E9,9E9,9E9,9E9,9E9]],v36,z1,tADSK27\WObj:=wADSK0;
    MoveL [[1083.628,-39.602,12.339],[0,-0.70710678,0.70710678,0],[0,0,0,0],[9E9,9E9,9E9,9E9,9E9,9E9]],v36,z1,tADSK27\WObj:=wADSK0;
    MoveL [[1081.793,-38.422,12.263],[0,-0.70710678,0.70710678,0],[0,0,0,0],[9E9,9E9,9E9,9E9,9E9,9E9]],v36,z1,tADSK27\WObj:=wADSK0;
    MoveL [[1079.659,-37.971,12.186],[0,-0.70710678,0.70710678,0],[0,0,0,0],[9E9,9E9,9E9,9E9,9E9,9E9]],v36,z1,tADSK27\WObj:=wADSK0;
    MoveL [[1077.504,-38.309,12.109],[0,-0.70710678,0.70710678,0],[0,0,0,0],[9E9,9E9,9E9,9E9,9E9,9E9]],v36,z1,tADSK27\WObj:=wADSK0;
    MoveL [[1075.61,-39.392,12.033],[0,-0.70710678,0.70710678,0],[0,0,0,0],[9E9,9E9,9E9,9E9,9E9,9E9]],v36,z1,tADSK27\WObj:=wADSK0;
    MoveL [[1074.225,-41.077,11.956],[0,-0.70710678,0.70710678,0],[0,0,0,0],[9E9,9E9,9E9,9E9,9E9,9E9]],v36,z1,tADSK27\WObj:=wADSK0;
    MoveL [[1073.53,-43.144,11.88],[0,-0.70710678,0.70710678,0],[0,0,0,0],[9E9,9E9,9E9,9E9,9E9,9E9]],v36,z1,tADSK27\WObj:=wADSK0;
    MoveL [[1073.615,-45.324,11.803],[0,-0.70710678,0.70710678,0],[0,0,0,0],[9E9,9E9,9E9,9E9,9E9,9E9]],v36,z1,tADSK27\WObj:=wADSK0;
    MoveL [[1074.47,-47.331,11.726],[0,-0.70710678,0.70710678,0],[0,0,0,0],[9E9,9E9,9E9,9E9,9E9,9E9]],v36,z1,tADSK27\WObj:=wADSK0;
    MoveL [[1075.983,-48.902,11.65],[0,-0.70710678,0.70710678,0],[0,0,0,0],[9E9,9E9,9E9,9E9,9E9,9E9]],v36,z1,tADSK27\WObj:=wADSK0;
    MoveL [[1077.956,-49.833,11.573],[0,-0.70710678,0.70710678,0],[0,0,0,0],[9E9,9E9,9E9,9E9,9E9,9E9]],v36,z1,tADSK27\WObj:=wADSK0;
    MoveL [[1080.131,-50.001,11.497],[0,-0.70710678,0.70710678,0],[0,0,0,0],[9E9,9E9,9E9,9E9,9E9,9E9]],v36,z1,tADSK27\WObj:=wADSK0;
    MoveL [[1082.223,-49.385,11.42],[0,-0.70710678,0.70710678,0],[0,0,0,0],[9E9,9E9,9E9,9E9,9E9,9E9]],v36,z1,tADSK27\WObj:=wADSK0;
    MoveL [[1083.96,-48.065,11.344],[0,-0.70710678,0.70710678,0],[0,0,0,0],[9E9,9E9,9E9,9E9,9E9,9E9]],v36,z1,tADSK27\WObj:=wADSK0;
    MoveL [[1085.113,-46.213,11.267],[0,-0.70710678,0.70710678,0],[0,0,0,0],[9E9,9E9,9E9,9E9,9E9,9E9]],v36,z1,tADSK27\WObj:=wADSK0;
    MoveL [[1085.533,-44.073,11.19],[0,-0.70710678,0.70710678,0],[0,0,0,0],[9E9,9E9,9E9,9E9,9E9,9E9]],v36,z1,tADSK27\WObj:=wADSK0;
    MoveL [[1085.164,-41.923,11.114],[0,-0.70710678,0.70710678,0],[0,0,0,0],[9E9,9E9,9E9,9E9,9E9,9E9]],v36,z1,tADSK27\WObj:=wADSK0;
    MoveL [[1084.055,-40.045,11.037],[0,-0.70710678,0.70710678,0],[0,0,0,0],[9E9,9E9,9E9,9E9,9E9,9E9]],v36,z1,tADSK27\WObj:=wADSK0;
    MoveL [[1082.35,-38.684,10.961],[0,-0.70710678,0.70710678,0],[0,0,0,0],[9E9,9E9,9E9,9E9,9E9,9E9]],v36,z1,tADSK27\WObj:=wADSK0;
    MoveL [[1080.272,-38.019,10.884],[0,-0.70710678,0.70710678,0],[0,0,0,0],[9E9,9E9,9E9,9E9,9E9,9E9]],v36,z1,tADSK27\WObj:=wADSK0;
    MoveL [[1078.094,-38.136,10.807],[0,-0.70710678,0.70710678,0],[0,0,0,0],[9E9,9E9,9E9,9E9,9E9,9E9]],v36,z1,tADSK27\WObj:=wADSK0;
    MoveL [[1076.1,-39.019,10.731],[0,-0.70710678,0.70710678,0],[0,0,0,0],[9E9,9E9,9E9,9E9,9E9,9E9]],v36,z1,tADSK27\WObj:=wADSK0;
    MoveL [[1074.55,-40.555,10.654],[0,-0.70710678,0.70710678,0],[0,0,0,0],[9E9,9E9,9E9,9E9,9E9,9E9]],v36,z1,tADSK27\WObj:=wADSK0;
    MoveL [[1073.648,-42.541,10.578],[0,-0.70710678,0.70710678,0],[0,0,0,0],[9E9,9E9,9E9,9E9,9E9,9E9]],v36,z1,tADSK27\WObj:=wADSK0;
    MoveL [[1073.511,-44.718,10.501],[0,-0.70710678,0.70710678,0],[0,0,0,0],[9E9,9E9,9E9,9E9,9E9,9E9]],v36,z1,tADSK27\WObj:=wADSK0;
    MoveL [[1074.157,-46.801,10.424],[0,-0.70710678,0.70710678,0],[0,0,0,0],[9E9,9E9,9E9,9E9,9E9,9E9]],v36,z1,tADSK27\WObj:=wADSK0;
    MoveL [[1075.502,-48.519,10.348],[0,-0.70710678,0.70710678,0],[0,0,0,0],[9E9,9E9,9E9,9E9,9E9,9E9]],v36,z1,tADSK27\WObj:=wADSK0;
    MoveL [[1077.37,-49.645,10.271],[0,-0.70710678,0.70710678,0],[0,0,0,0],[9E9,9E9,9E9,9E9,9E9,9E9]],v36,z1,tADSK27\WObj:=wADSK0;
    MoveL [[1079.517,-50.034,10.195],[0,-0.70710678,0.70710678,0],[0,0,0,0],[9E9,9E9,9E9,9E9,9E9,9E9]],v36,z1,tADSK27\WObj:=wADSK0;
    MoveL [[1081.661,-49.634,10.118],[0,-0.70710678,0.70710678,0],[0,0,0,0],[9E9,9E9,9E9,9E9,9E9,9E9]],v36,z1,tADSK27\WObj:=wADSK0;
    MoveL [[1083.523,-48.498,10.041],[0,-0.70710678,0.70710678,0],[0,0,0,0],[9E9,9E9,9E9,9E9,9E9,9E9]],v36,z1,tADSK27\WObj:=wADSK0;
    MoveL [[1084.859,-46.773,9.965],[0,-0.70710678,0.70710678,0],[0,0,0,0],[9E9,9E9,9E9,9E9,9E9,9E9]],v36,z1,tADSK27\WObj:=wADSK0;
    MoveL [[1085.494,-44.687,9.888],[0,-0.70710678,0.70710678,0],[0,0,0,0],[9E9,9E9,9E9,9E9,9E9,9E9]],v36,z1,tADSK27\WObj:=wADSK0;
    MoveL [[1085.346,-42.51,9.812],[0,-0.70710678,0.70710678,0],[0,0,0,0],[9E9,9E9,9E9,9E9,9E9,9E9]],v36,z1,tADSK27\WObj:=wADSK0;
    MoveL [[1084.434,-40.529,9.735],[0,-0.70710678,0.70710678,0],[0,0,0,0],[9E9,9E9,9E9,9E9,9E9,9E9]],v36,z1,tADSK27\WObj:=wADSK0;
    MoveL [[1082.876,-39.002,9.658],[0,-0.70710678,0.70710678,0],[0,0,0,0],[9E9,9E9,9E9,9E9,9E9,9E9]],v36,z1,tADSK27\WObj:=wADSK0;
    MoveL [[1080.878,-38.128,9.582],[0,-0.70710678,0.70710678,0],[0,0,0,0],[9E9,9E9,9E9,9E9,9E9,9E9]],v36,z1,tADSK27\WObj:=wADSK0;
    MoveL [[1078.699,-38.023,9.505],[0,-0.70710678,0.70710678,0],[0,0,0,0],[9E9,9E9,9E9,9E9,9E9,9E9]],v36,z1,tADSK27\WObj:=wADSK0;
    MoveL [[1076.625,-38.699,9.429],[0,-0.70710678,0.70710678,0],[0,0,0,0],[9E9,9E9,9E9,9E9,9E9,9E9]],v36,z1,tADSK27\WObj:=wADSK0;
    MoveL [[1074.927,-40.068,9.352],[0,-0.70710678,0.70710678,0],[0,0,0,0],[9E9,9E9,9E9,9E9,9E9,9E9]],v36,z1,tADSK27\WObj:=wADSK0;
    MoveL [[1073.827,-41.952,9.275],[0,-0.70710678,0.70710678,0],[0,0,0,0],[9E9,9E9,9E9,9E9,9E9,9E9]],v36,z1,tADSK27\WObj:=wADSK0;
    MoveL [[1073.469,-44.104,9.199],[0,-0.70710678,0.70710678,0],[0,0,0,0],[9E9,9E9,9E9,9E9,9E9,9E9]],v36,z1,tADSK27\WObj:=wADSK0;
    MoveL [[1073.9,-46.243,9.122],[0,-0.70710678,0.70710678,0],[0,0,0,0],[9E9,9E9,9E9,9E9,9E9,9E9]],v36,z1,tADSK27\WObj:=wADSK0;
    MoveL [[1075.063,-48.088,9.046],[0,-0.70710678,0.70710678,0],[0,0,0,0],[9E9,9E9,9E9,9E9,9E9,9E9]],v36,z1,tADSK27\WObj:=wADSK0;
    MoveL [[1076.807,-49.399,8.969],[0,-0.70710678,0.70710678,0],[0,0,0,0],[9E9,9E9,9E9,9E9,9E9,9E9]],v36,z1,tADSK27\WObj:=wADSK0;
    MoveL [[1078.902,-50.004,8.892],[0,-0.70710678,0.70710678,0],[0,0,0,0],[9E9,9E9,9E9,9E9,9E9,9E9]],v36,z1,tADSK27\WObj:=wADSK0;
    MoveL [[1081.076,-49.825,8.816],[0,-0.70710678,0.70710678,0],[0,0,0,0],[9E9,9E9,9E9,9E9,9E9,9E9]],v36,z1,tADSK27\WObj:=wADSK0;
    MoveL [[1083.044,-48.884,8.739],[0,-0.70710678,0.70710678,0],[0,0,0,0],[9E9,9E9,9E9,9E9,9E9,9E9]],v36,z1,tADSK27\WObj:=wADSK0;
    MoveL [[1084.549,-47.305,8.663],[0,-0.70710678,0.70710678,0],[0,0,0,0],[9E9,9E9,9E9,9E9,9E9,9E9]],v36,z1,tADSK27\WObj:=wADSK0;
    MoveL [[1085.394,-45.294,8.586],[0,-0.70710678,0.70710678,0],[0,0,0,0],[9E9,9E9,9E9,9E9,9E9,9E9]],v36,z1,tADSK27\WObj:=wADSK0;
    MoveL [[1085.468,-43.113,8.509],[0,-0.70710678,0.70710678,0],[0,0,0,0],[9E9,9E9,9E9,9E9,9E9,9E9]],v36,z1,tADSK27\WObj:=wADSK0;
    MoveL [[1084.762,-41.05,8.433],[0,-0.70710678,0.70710678,0],[0,0,0,0],[9E9,9E9,9E9,9E9,9E9,9E9]],v36,z1,tADSK27\WObj:=wADSK0;
    MoveL [[1083.368,-39.372,8.356],[0,-0.70710678,0.70710678,0],[0,0,0,0],[9E9,9E9,9E9,9E9,9E9,9E9]],v36,z1,tADSK27\WObj:=wADSK0;
    MoveL [[1081.468,-38.299,8.28],[0,-0.70710678,0.70710678,0],[0,0,0,0],[9E9,9E9,9E9,9E9,9E9,9E9]],v36,z1,tADSK27\WObj:=wADSK0;
    MoveL [[1079.312,-37.972,8.203],[0,-0.70710678,0.70710678,0],[0,0,0,0],[9E9,9E9,9E9,9E9,9E9,9E9]],v36,z1,tADSK27\WObj:=wADSK0;
    MoveL [[1077.18,-38.434,8.127],[0,-0.70710678,0.70710678,0],[0,0,0,0],[9E9,9E9,9E9,9E9,9E9,9E9]],v36,z1,tADSK27\WObj:=wADSK0;
    MoveL [[1075.351,-39.623,8.05],[0,-0.70710678,0.70710678,0],[0,0,0,0],[9E9,9E9,9E9,9E9,9E9,9E9]],v36,z1,tADSK27\WObj:=wADSK0;
    MoveL [[1074.065,-41.385,7.973],[0,-0.70710678,0.70710678,0],[0,0,0,0],[9E9,9E9,9E9,9E9,9E9,9E9]],v36,z1,tADSK27\WObj:=wADSK0;
    MoveL [[1073.49,-43.489,7.897],[0,-0.70710678,0.70710678,0],[0,0,0,0],[9E9,9E9,9E9,9E9,9E9,9E9]],v36,z1,tADSK27\WObj:=wADSK0;
    MoveL [[1073.701,-45.66,7.82],[0,-0.70710678,0.70710678,0],[0,0,0,0],[9E9,9E9,9E9,9E9,9E9,9E9]],v36,z1,tADSK27\WObj:=wADSK0;
    MoveL [[1074.67,-47.615,7.744],[0,-0.70710678,0.70710678,0],[0,0,0,0],[9E9,9E9,9E9,9E9,9E9,9E9]],v36,z1,tADSK27\WObj:=wADSK0;
    MoveL [[1076.271,-49.097,7.667],[0,-0.70710678,0.70710678,0],[0,0,0,0],[9E9,9E9,9E9,9E9,9E9,9E9]],v36,z1,tADSK27\WObj:=wADSK0;
    MoveL [[1078.294,-49.912,7.59],[0,-0.70710678,0.70710678,0],[0,0,0,0],[9E9,9E9,9E9,9E9,9E9,9E9]],v36,z1,tADSK27\WObj:=wADSK0;
    MoveL [[1080.475,-49.955,7.514],[0,-0.70710678,0.70710678,0],[0,0,0,0],[9E9,9E9,9E9,9E9,9E9,9E9]],v36,z1,tADSK27\WObj:=wADSK0;
    MoveL [[1082.529,-49.219,7.437],[0,-0.70710678,0.70710678,0],[0,0,0,0],[9E9,9E9,9E9,9E9,9E9,9E9]],v36,z1,tADSK27\WObj:=wADSK0;
    MoveL [[1084.186,-47.802,7.361],[0,-0.70710678,0.70710678,0],[0,0,0,0],[9E9,9E9,9E9,9E9,9E9,9E9]],v36,z1,tADSK27\WObj:=wADSK0;
    MoveL [[1085.231,-45.887,7.284],[0,-0.70710678,0.70710678,0],[0,0,0,0],[9E9,9E9,9E9,9E9,9E9,9E9]],v36,z1,tADSK27\WObj:=wADSK0;
    MoveL [[1085.527,-43.726,7.207],[0,-0.70710678,0.70710678,0],[0,0,0,0],[9E9,9E9,9E9,9E9,9E9,9E9]],v36,z1,tADSK27\WObj:=wADSK0;
    MoveL [[1085.035,-41.601,7.131],[0,-0.70710678,0.70710678,0],[0,0,0,0],[9E9,9E9,9E9,9E9,9E9,9E9]],v36,z1,tADSK27\WObj:=wADSK0;
    MoveL [[1083.819,-39.789,7.054],[0,-0.70710678,0.70710678,0],[0,0,0,0],[9E9,9E9,9E9,9E9,9E9,9E9]],v36,z1,tADSK27\WObj:=wADSK0;
    MoveL [[1082.039,-38.529,6.978],[0,-0.70710678,0.70710678,0],[0,0,0,0],[9E9,9E9,9E9,9E9,9E9,9E9]],v36,z1,tADSK27\WObj:=wADSK0;
    MoveL [[1079.927,-37.984,6.901],[0,-0.70710678,0.70710678,0],[0,0,0,0],[9E9,9E9,9E9,9E9,9E9,9E9]],v36,z1,tADSK27\WObj:=wADSK0;
    MoveL [[1077.759,-38.226,6.824],[0,-0.70710678,0.70710678,0],[0,0,0,0],[9E9,9E9,9E9,9E9,9E9,9E9]],v36,z1,tADSK27\WObj:=wADSK0;
    MoveL [[1075.819,-39.223,6.748],[0,-0.70710678,0.70710678,0],[0,0,0,0],[9E9,9E9,9E9,9E9,9E9,9E9]],v36,z1,tADSK27\WObj:=wADSK0;
    MoveL [[1074.36,-40.845,6.671],[0,-0.70710678,0.70710678,0],[0,0,0,0],[9E9,9E9,9E9,9E9,9E9,9E9]],v36,z1,tADSK27\WObj:=wADSK0;
    MoveL [[1073.574,-42.88,6.595],[0,-0.70710678,0.70710678,0],[0,0,0,0],[9E9,9E9,9E9,9E9,9E9,9E9]],v36,z1,tADSK27\WObj:=wADSK0;
    MoveL [[1073.562,-45.061,6.518],[0,-0.70710678,0.70710678,0],[0,0,0,0],[9E9,9E9,9E9,9E9,9E9,9E9]],v36,z1,tADSK27\WObj:=wADSK0;
    MoveL [[1074.327,-47.104,6.441],[0,-0.70710678,0.70710678,0],[0,0,0,0],[9E9,9E9,9E9,9E9,9E9,9E9]],v36,z1,tADSK27\WObj:=wADSK0;
    MoveL [[1075.769,-48.741,6.365],[0,-0.70710678,0.70710678,0],[0,0,0,0],[9E9,9E9,9E9,9E9,9E9,9E9]],v36,z1,tADSK27\WObj:=wADSK0;
    MoveL [[1077.698,-49.759,6.288],[0,-0.70710678,0.70710678,0],[0,0,0,0],[9E9,9E9,9E9,9E9,9E9,9E9]],v36,z1,tADSK27\WObj:=wADSK0;
    MoveL [[1079.864,-50.023,6.212],[0,-0.70710678,0.70710678,0],[0,0,0,0],[9E9,9E9,9E9,9E9,9E9,9E9]],v36,z1,tADSK27\WObj:=wADSK0;
    MoveL [[1081.981,-49.501,6.135],[0,-0.70710678,0.70710678,0],[0,0,0,0],[9E9,9E9,9E9,9E9,9E9,9E9]],v36,z1,tADSK27\WObj:=wADSK0;
    MoveL [[1083.775,-48.259,6.058],[0,-0.70710678,0.70710678,0],[0,0,0,0],[9E9,9E9,9E9,9E9,9E9,9E9]],v36,z1,tADSK27\WObj:=wADSK0;
    MoveL [[1085.01,-46.461,5.982],[0,-0.70710678,0.70710678,0],[0,0,0,0],[9E9,9E9,9E9,9E9,9E9,9E9]],v36,z1,tADSK27\WObj:=wADSK0;
    MoveL [[1085.524,-44.341,5.905],[0,-0.70710678,0.70710678,0],[0,0,0,0],[9E9,9E9,9E9,9E9,9E9,9E9]],v36,z1,tADSK27\WObj:=wADSK0;
    MoveL [[1085.251,-42.177,5.829],[0,-0.70710678,0.70710678,0],[0,0,0,0],[9E9,9E9,9E9,9E9,9E9,9E9]],v36,z1,tADSK27\WObj:=wADSK0;
    MoveL [[1084.226,-40.251,5.752],[0,-0.70710678,0.70710678,0],[0,0,0,0],[9E9,9E9,9E9,9E9,9E9,9E9]],v36,z1,tADSK27\WObj:=wADSK0;
    MoveL [[1082.583,-38.816,5.675],[0,-0.70710678,0.70710678,0],[0,0,0,0],[9E9,9E9,9E9,9E9,9E9,9E9]],v36,z1,tADSK27\WObj:=wADSK0;
    MoveL [[1080.537,-38.059,5.599],[0,-0.70710678,0.70710678,0],[0,0,0,0],[9E9,9E9,9E9,9E9,9E9,9E9]],v36,z1,tADSK27\WObj:=wADSK0;
    MoveL [[1078.356,-38.079,5.522],[0,-0.70710678,0.70710678,0],[0,0,0,0],[9E9,9E9,9E9,9E9,9E9,9E9]],v36,z1,tADSK27\WObj:=wADSK0;
    MoveL [[1076.325,-38.873,5.446],[0,-0.70710678,0.70710678,0],[0,0,0,0],[9E9,9E9,9E9,9E9,9E9,9E9]],v36,z1,tADSK27\WObj:=wADSK0;
    MoveL [[1074.708,-40.338,5.369],[0,-0.70710678,0.70710678,0],[0,0,0,0],[9E9,9E9,9E9,9E9,9E9,9E9]],v36,z1,tADSK27\WObj:=wADSK0;
    MoveL [[1073.719,-42.282,5.292],[0,-0.70710678,0.70710678,0],[0,0,0,0],[9E9,9E9,9E9,9E9,9E9,9E9]],v36,z1,tADSK27\WObj:=wADSK0;
    MoveL [[1073.485,-44.451,5.216],[0,-0.70710678,0.70710678,0],[0,0,0,0],[9E9,9E9,9E9,9E9,9E9,9E9]],v36,z1,tADSK27\WObj:=wADSK0;
    MoveL [[1074.038,-46.561,5.139],[0,-0.70710678,0.70710678,0],[0,0,0,0],[9E9,9E9,9E9,9E9,9E9,9E9]],v36,z1,tADSK27\WObj:=wADSK0;
    MoveL [[1075.306,-48.336,5.063],[0,-0.70710678,0.70710678,0],[0,0,0,0],[9E9,9E9,9E9,9E9,9E9,9E9]],v36,z1,tADSK27\WObj:=wADSK0;
    MoveL [[1077.121,-49.545,4.986],[0,-0.70710678,0.70710678,0],[0,0,0,0],[9E9,9E9,9E9,9E9,9E9,9E9]],v36,z1,tADSK27\WObj:=wADSK0;
    MoveL [[1079.248,-50.029,4.91],[0,-0.70710678,0.70710678,0],[0,0,0,0],[9E9,9E9,9E9,9E9,9E9,9E9]],v36,z1,tADSK27\WObj:=wADSK0;
    MoveL [[1081.408,-49.725,4.833],[0,-0.70710678,0.70710678,0],[0,0,0,0],[9E9,9E9,9E9,9E9,9E9,9E9]],v36,z1,tADSK27\WObj:=wADSK0;
    MoveL [[1083.319,-48.672,4.756],[0,-0.70710678,0.70710678,0],[0,0,0,0],[9E9,9E9,9E9,9E9,9E9,9E9]],v36,z1,tADSK27\WObj:=wADSK0;
    MoveL [[1084.73,-47.009,4.68],[0,-0.70710678,0.70710678,0],[0,0,0,0],[9E9,9E9,9E9,9E9,9E9,9E9]],v36,z1,tADSK27\WObj:=wADSK0;
    MoveL [[1085.458,-44.953,4.603],[0,-0.70710678,0.70710678,0],[0,0,0,0],[9E9,9E9,9E9,9E9,9E9,9E9]],v36,z1,tADSK27\WObj:=wADSK0;
    MoveL [[1085.407,-42.772,4.527],[0,-0.70710678,0.70710678,0],[0,0,0,0],[9E9,9E9,9E9,9E9,9E9,9E9]],v36,z1,tADSK27\WObj:=wADSK0;
    MoveL [[1084.583,-40.752,4.45],[0,-0.70710678,0.70710678,0],[0,0,0,0],[9E9,9E9,9E9,9E9,9E9,9E9]],v36,z1,tADSK27\WObj:=wADSK0;
    MoveL [[1083.095,-39.157,4.373],[0,-0.70710678,0.70710678,0],[0,0,0,0],[9E9,9E9,9E9,9E9,9E9,9E9]],v36,z1,tADSK27\WObj:=wADSK0;
    MoveL [[1081.137,-38.195,4.297],[0,-0.70710678,0.70710678,0],[0,0,0,0],[9E9,9E9,9E9,9E9,9E9,9E9]],v36,z1,tADSK27\WObj:=wADSK0;
    MoveL [[1078.965,-37.993,4.22],[0,-0.70710678,0.70710678,0],[0,0,0,0],[9E9,9E9,9E9,9E9,9E9,9E9]],v36,z1,tADSK27\WObj:=wADSK0;
    MoveL [[1076.863,-38.576,4.144],[0,-0.70710678,0.70710678,0],[0,0,0,0],[9E9,9E9,9E9,9E9,9E9,9E9]],v36,z1,tADSK27\WObj:=wADSK0;
    MoveL [[1075.106,-39.869,4.067],[0,-0.70710678,0.70710678,0],[0,0,0,0],[9E9,9E9,9E9,9E9,9E9,9E9]],v36,z1,tADSK27\WObj:=wADSK0;
    MoveL [[1073.924,-41.702,3.99],[0,-0.70710678,0.70710678,0],[0,0,0,0],[9E9,9E9,9E9,9E9,9E9,9E9]],v36,z1,tADSK27\WObj:=wADSK0;
    MoveL [[1073.471,-43.836,3.914],[0,-0.70710678,0.70710678,0],[0,0,0,0],[9E9,9E9,9E9,9E9,9E9,9E9]],v36,z1,tADSK27\WObj:=wADSK0;
    MoveL [[1073.806,-45.991,3.837],[0,-0.70710678,0.70710678,0],[0,0,0,0],[9E9,9E9,9E9,9E9,9E9,9E9]],v36,z1,tADSK27\WObj:=wADSK0;
    MoveL [[1074.886,-47.887,3.761],[0,-0.70710678,0.70710678,0],[0,0,0,0],[9E9,9E9,9E9,9E9,9E9,9E9]],v36,z1,tADSK27\WObj:=wADSK0;
    MoveL [[1076.569,-49.274,3.684],[0,-0.70710678,0.70710678,0],[0,0,0,0],[9E9,9E9,9E9,9E9,9E9,9E9]],v36,z1,tADSK27\WObj:=wADSK0;
    MoveL [[1078.636,-49.972,3.607],[0,-0.70710678,0.70710678,0],[0,0,0,0],[9E9,9E9,9E9,9E9,9E9,9E9]],v36,z1,tADSK27\WObj:=wADSK0;
    MoveL [[1080.816,-49.889,3.531],[0,-0.70710678,0.70710678,0],[0,0,0,0],[9E9,9E9,9E9,9E9,9E9,9E9]],v36,z1,tADSK27\WObj:=wADSK0;
    MoveL [[1082.824,-49.037,3.454],[0,-0.70710678,0.70710678,0],[0,0,0,0],[9E9,9E9,9E9,9E9,9E9,9E9]],v36,z1,tADSK27\WObj:=wADSK0;
    MoveL [[1084.397,-47.526,3.378],[0,-0.70710678,0.70710678,0],[0,0,0,0],[9E9,9E9,9E9,9E9,9E9,9E9]],v36,z1,tADSK27\WObj:=wADSK0;
    MoveL [[1085.33,-45.554,3.301],[0,-0.70710678,0.70710678,0],[0,0,0,0],[9E9,9E9,9E9,9E9,9E9,9E9]],v36,z1,tADSK27\WObj:=wADSK0;
    MoveL [[1085.501,-43.38,3.224],[0,-0.70710678,0.70710678,0],[0,0,0,0],[9E9,9E9,9E9,9E9,9E9,9E9]],v36,z1,tADSK27\WObj:=wADSK0;
    MoveL [[1084.888,-41.286,3.148],[0,-0.70710678,0.70710678,0],[0,0,0,0],[9E9,9E9,9E9,9E9,9E9,9E9]],v36,z1,tADSK27\WObj:=wADSK0;
    MoveL [[1083.57,-39.548,3.071],[0,-0.70710678,0.70710678,0],[0,0,0,0],[9E9,9E9,9E9,9E9,9E9,9E9]],v36,z1,tADSK27\WObj:=wADSK0;
    MoveL [[1081.72,-38.392,2.995],[0,-0.70710678,0.70710678,0],[0,0,0,0],[9E9,9E9,9E9,9E9,9E9,9E9]],v36,z1,tADSK27\WObj:=wADSK0;
    MoveL [[1079.58,-37.97,2.918],[0,-0.70710678,0.70710678,0],[0,0,0,0],[9E9,9E9,9E9,9E9,9E9,9E9]],v36,z1,tADSK27\WObj:=wADSK0;
    MoveL [[1077.43,-38.336,2.841],[0,-0.70710678,0.70710678,0],[0,0,0,0],[9E9,9E9,9E9,9E9,9E9,9E9]],v36,z1,tADSK27\WObj:=wADSK0;
    MoveL [[1075.55,-39.443,2.765],[0,-0.70710678,0.70710678,0],[0,0,0,0],[9E9,9E9,9E9,9E9,9E9,9E9]],v36,z1,tADSK27\WObj:=wADSK0;
    MoveL [[1074.187,-41.146,2.688],[0,-0.70710678,0.70710678,0],[0,0,0,0],[9E9,9E9,9E9,9E9,9E9,9E9]],v36,z1,tADSK27\WObj:=wADSK0;
    MoveL [[1073.519,-43.223,2.612],[0,-0.70710678,0.70710678,0],[0,0,0,0],[9E9,9E9,9E9,9E9,9E9,9E9]],v36,z1,tADSK27\WObj:=wADSK0;
    MoveL [[1073.633,-45.401,2.535],[0,-0.70710678,0.70710678,0],[0,0,0,0],[9E9,9E9,9E9,9E9,9E9,9E9]],v36,z1,tADSK27\WObj:=wADSK0;
    MoveL [[1074.514,-47.396,2.458],[0,-0.70710678,0.70710678,0],[0,0,0,0],[9E9,9E9,9E9,9E9,9E9,9E9]],v36,z1,tADSK27\WObj:=wADSK0;
    MoveL [[1076.048,-48.948,2.382],[0,-0.70710678,0.70710678,0],[0,0,0,0],[9E9,9E9,9E9,9E9,9E9,9E9]],v36,z1,tADSK27\WObj:=wADSK0;
    MoveL [[1078.032,-49.853,2.305],[0,-0.70710678,0.70710678,0],[0,0,0,0],[9E9,9E9,9E9,9E9,9E9,9E9]],v36,z1,tADSK27\WObj:=wADSK0;
    MoveL [[1080.209,-49.992,2.229],[0,-0.70710678,0.70710678,0],[0,0,0,0],[9E9,9E9,9E9,9E9,9E9,9E9]],v36,z1,tADSK27\WObj:=wADSK0;
    MoveL [[1082.294,-49.349,2.152],[0,-0.70710678,0.70710678,0],[0,0,0,0],[9E9,9E9,9E9,9E9,9E9,9E9]],v36,z1,tADSK27\WObj:=wADSK0;
    MoveL [[1084.013,-48.006,2.075],[0,-0.70710678,0.70710678,0],[0,0,0,0],[9E9,9E9,9E9,9E9,9E9,9E9]],v36,z1,tADSK27\WObj:=wADSK0;
    MoveL [[1085.142,-46.14,1.999],[0,-0.70710678,0.70710678,0],[0,0,0,0],[9E9,9E9,9E9,9E9,9E9,9E9]],v36,z1,tADSK27\WObj:=wADSK0;
    MoveL [[1085.533,-43.994,1.922],[0,-0.70710678,0.70710678,0],[0,0,0,0],[9E9,9E9,9E9,9E9,9E9,9E9]],v36,z1,tADSK27\WObj:=wADSK0;
    MoveL [[1085.136,-41.849,1.846],[0,-0.70710678,0.70710678,0],[0,0,0,0],[9E9,9E9,9E9,9E9,9E9,9E9]],v36,z1,tADSK27\WObj:=wADSK0;
    MoveL [[1084.002,-39.986,1.769],[0,-0.70710678,0.70710678,0],[0,0,0,0],[9E9,9E9,9E9,9E9,9E9,9E9]],v36,z1,tADSK27\WObj:=wADSK0;
    MoveL [[1082.28,-38.647,1.692],[0,-0.70710678,0.70710678,0],[0,0,0,0],[9E9,9E9,9E9,9E9,9E9,9E9]],v36,z1,tADSK27\WObj:=wADSK0;
    MoveL [[1080.194,-38.009,1.616],[0,-0.70710678,0.70710678,0],[0,0,0,0],[9E9,9E9,9E9,9E9,9E9,9E9]],v36,z1,tADSK27\WObj:=wADSK0;
    MoveL [[1078.017,-38.154,1.539],[0,-0.70710678,0.70710678,0],[0,0,0,0],[9E9,9E9,9E9,9E9,9E9,9E9]],v36,z1,tADSK27\WObj:=wADSK0;
    MoveL [[1076.035,-39.064,1.463],[0,-0.70710678,0.70710678,0],[0,0,0,0],[9E9,9E9,9E9,9E9,9E9,9E9]],v36,z1,tADSK27\WObj:=wADSK0;
    MoveL [[1074.506,-40.62,1.386],[0,-0.70710678,0.70710678,0],[0,0,0,0],[9E9,9E9,9E9,9E9,9E9,9E9]],v36,z1,tADSK27\WObj:=wADSK0;
    MoveL [[1073.629,-42.617,1.31],[0,-0.70710678,0.70710678,0],[0,0,0,0],[9E9,9E9,9E9,9E9,9E9,9E9]],v36,z1,tADSK27\WObj:=wADSK0;
    MoveL [[1073.521,-44.796,1.233],[0,-0.70710678,0.70710678,0],[0,0,0,0],[9E9,9E9,9E9,9E9,9E9,9E9]],v36,z1,tADSK27\WObj:=wADSK0;
    MoveL [[1074.194,-46.871,1.156],[0,-0.70710678,0.70710678,0],[0,0,0,0],[9E9,9E9,9E9,9E9,9E9,9E9]],v36,z1,tADSK27\WObj:=wADSK0;
    MoveL [[1075.562,-48.571,1.08],[0,-0.70710678,0.70710678,0],[0,0,0,0],[9E9,9E9,9E9,9E9,9E9,9E9]],v36,z1,tADSK27\WObj:=wADSK0;
    MoveL [[1077.444,-49.673,1.003],[0,-0.70710678,0.70710678,0],[0,0,0,0],[9E9,9E9,9E9,9E9,9E9,9E9]],v36,z1,tADSK27\WObj:=wADSK0;
    MoveL [[1079.596,-50.033,0.927],[0,-0.70710678,0.70710678,0],[0,0,0,0],[9E9,9E9,9E9,9E9,9E9,9E9]],v36,z1,tADSK27\WObj:=wADSK0;
    MoveL [[1081.734,-49.605,0.85],[0,-0.70710678,0.70710678,0],[0,0,0,0],[9E9,9E9,9E9,9E9,9E9,9E9]],v36,z1,tADSK27\WObj:=wADSK0;
    MoveL [[1083.581,-48.445,0.773],[0,-0.70710678,0.70710678,0],[0,0,0,0],[9E9,9E9,9E9,9E9,9E9,9E9]],v36,z1,tADSK27\WObj:=wADSK0;
    MoveL [[1084.895,-46.703,0.697],[0,-0.70710678,0.70710678,0],[0,0,0,0],[9E9,9E9,9E9,9E9,9E9,9E9]],v36,z1,tADSK27\WObj:=wADSK0;
    MoveL [[1085.503,-44.608,0.62],[0,-0.70710678,0.70710678,0],[0,0,0,0],[9E9,9E9,9E9,9E9,9E9,9E9]],v36,z1,tADSK27\WObj:=wADSK0;
    MoveL [[1085.326,-42.434,0.544],[0,-0.70710678,0.70710678,0],[0,0,0,0],[9E9,9E9,9E9,9E9,9E9,9E9]],v36,z1,tADSK27\WObj:=wADSK0;
    MoveL [[1084.388,-40.465,0.467],[0,-0.70710678,0.70710678,0],[0,0,0,0],[9E9,9E9,9E9,9E9,9E9,9E9]],v36,z1,tADSK27\WObj:=wADSK0;
    MoveL [[1082.811,-38.958,0.39],[0,-0.70710678,0.70710678,0],[0,0,0,0],[9E9,9E9,9E9,9E9,9E9,9E9]],v36,z1,tADSK27\WObj:=wADSK0;
    MoveL [[1080.801,-38.111,0.314],[0,-0.70710678,0.70710678,0],[0,0,0,0],[9E9,9E9,9E9,9E9,9E9,9E9]],v36,z1,tADSK27\WObj:=wADSK0;
    MoveL [[1078.621,-38.034,0.237],[0,-0.70710678,0.70710678,0],[0,0,0,0],[9E9,9E9,9E9,9E9,9E9,9E9]],v36,z1,tADSK27\WObj:=wADSK0;
    MoveL [[1076.556,-38.737,0.161],[0,-0.70710678,0.70710678,0],[0,0,0,0],[9E9,9E9,9E9,9E9,9E9,9E9]],v36,z1,tADSK27\WObj:=wADSK0;
    MoveL [[1074.876,-40.129,0.084],[0,-0.70710678,0.70710678,0],[0,0,0,0],[9E9,9E9,9E9,9E9,9E9,9E9]],v36,z1,tADSK27\WObj:=wADSK0;
    MoveL [[1073.801,-42.027,0.007],[0,-0.70710678,0.70710678,0],[0,0,0,0],[9E9,9E9,9E9,9E9,9E9,9E9]],v36,z1,tADSK27\WObj:=wADSK0;
    MoveL [[1073.471,-44.183,-0.069],[0,-0.70710678,0.70710678,0],[0,0,0,0],[9E9,9E9,9E9,9E9,9E9,9E9]],v36,z1,tADSK27\WObj:=wADSK0;
    MoveL [[1073.93,-46.316,-0.146],[0,-0.70710678,0.70710678,0],[0,0,0,0],[9E9,9E9,9E9,9E9,9E9,9E9]],v36,z1,tADSK27\WObj:=wADSK0;
    MoveL [[1075.117,-48.146,-0.222],[0,-0.70710678,0.70710678,0],[0,0,0,0],[9E9,9E9,9E9,9E9,9E9,9E9]],v36,z1,tADSK27\WObj:=wADSK0;
    MoveL [[1076.877,-49.434,-0.299],[0,-0.70710678,0.70710678,0],[0,0,0,0],[9E9,9E9,9E9,9E9,9E9,9E9]],v36,z1,tADSK27\WObj:=wADSK0;
    MoveL [[1078.981,-50.012,-0.376],[0,-0.70710678,0.70710678,0],[0,0,0,0],[9E9,9E9,9E9,9E9,9E9,9E9]],v36,z1,tADSK27\WObj:=wADSK0;
    MoveL [[1081.152,-49.804,-0.452],[0,-0.70710678,0.70710678,0],[0,0,0,0],[9E9,9E9,9E9,9E9,9E9,9E9]],v36,z1,tADSK27\WObj:=wADSK0;
    MoveL [[1083.108,-48.837,-0.529],[0,-0.70710678,0.70710678,0],[0,0,0,0],[9E9,9E9,9E9,9E9,9E9,9E9]],v36,z1,tADSK27\WObj:=wADSK0;
    MoveL [[1084.592,-47.238,-0.605],[0,-0.70710678,0.70710678,0],[0,0,0,0],[9E9,9E9,9E9,9E9,9E9,9E9]],v36,z1,tADSK27\WObj:=wADSK0;
    MoveL [[1085.41,-45.216,-0.682],[0,-0.70710678,0.70710678,0],[0,0,0,0],[9E9,9E9,9E9,9E9,9E9,9E9]],v36,z1,tADSK27\WObj:=wADSK0;
    MoveL [[1085.456,-43.036,-0.759],[0,-0.70710678,0.70710678,0],[0,0,0,0],[9E9,9E9,9E9,9E9,9E9,9E9]],v36,z1,tADSK27\WObj:=wADSK0;
    MoveL [[1084.723,-40.981,-0.835],[0,-0.70710678,0.70710678,0],[0,0,0,0],[9E9,9E9,9E9,9E9,9E9,9E9]],v36,z1,tADSK27\WObj:=wADSK0;
    MoveL [[1083.307,-39.321,-0.912],[0,-0.70710678,0.70710678,0],[0,0,0,0],[9E9,9E9,9E9,9E9,9E9,9E9]],v36,z1,tADSK27\WObj:=wADSK0;
    MoveL [[1081.394,-38.274,-0.988],[0,-0.70710678,0.70710678,0],[0,0,0,0],[9E9,9E9,9E9,9E9,9E9,9E9]],v36,z1,tADSK27\WObj:=wADSK0;
    MoveL [[1079.233,-37.975,-1.065],[0,-0.70710678,0.70710678,0],[0,0,0,0],[9E9,9E9,9E9,9E9,9E9,9E9]],v36,z1,tADSK27\WObj:=wADSK0;
    MoveL [[1077.107,-38.464,-1.142],[0,-0.70710678,0.70710678,0],[0,0,0,0],[9E9,9E9,9E9,9E9,9E9,9E9]],v36,z1,tADSK27\WObj:=wADSK0;
    MoveL [[1075.294,-39.678,-1.218],[0,-0.70710678,0.70710678,0],[0,0,0,0],[9E9,9E9,9E9,9E9,9E9,9E9]],v36,z1,tADSK27\WObj:=wADSK0;
    MoveL [[1074.032,-41.456,-1.295],[0,-0.70710678,0.70710678,0],[0,0,0,0],[9E9,9E9,9E9,9E9,9E9,9E9]],v36,z1,tADSK27\WObj:=wADSK0;
    MoveL [[1073.484,-43.568,-1.371],[0,-0.70710678,0.70710678,0],[0,0,0,0],[9E9,9E9,9E9,9E9,9E9,9E9]],v36,z1,tADSK27\WObj:=wADSK0;
    MoveL [[1073.723,-45.736,-1.448],[0,-0.70710678,0.70710678,0],[0,0,0,0],[9E9,9E9,9E9,9E9,9E9,9E9]],v36,z1,tADSK27\WObj:=wADSK0;
    MoveL [[1074.718,-47.678,-1.525],[0,-0.70710678,0.70710678,0],[0,0,0,0],[9E9,9E9,9E9,9E9,9E9,9E9]],v36,z1,tADSK27\WObj:=wADSK0;
    MoveL [[1076.338,-49.138,-1.601],[0,-0.70710678,0.70710678,0],[0,0,0,0],[9E9,9E9,9E9,9E9,9E9,9E9]],v36,z1,tADSK27\WObj:=wADSK0;
    MoveL [[1078.371,-49.927,-1.678],[0,-0.70710678,0.70710678,0],[0,0,0,0],[9E9,9E9,9E9,9E9,9E9,9E9]],v36,z1,tADSK27\WObj:=wADSK0;
    MoveL [[1080.553,-49.942,-1.754],[0,-0.70710678,0.70710678,0],[0,0,0,0],[9E9,9E9,9E9,9E9,9E9,9E9]],v36,z1,tADSK27\WObj:=wADSK0;
    MoveL [[1082.596,-49.179,-1.831],[0,-0.70710678,0.70710678,0],[0,0,0,0],[9E9,9E9,9E9,9E9,9E9,9E9]],v36,z1,tADSK27\WObj:=wADSK0;
    MoveL [[1084.236,-47.74,-1.907],[0,-0.70710678,0.70710678,0],[0,0,0,0],[9E9,9E9,9E9,9E9,9E9,9E9]],v36,z1,tADSK27\WObj:=wADSK0;
    MoveL [[1085.255,-45.812,-1.984],[0,-0.70710678,0.70710678,0],[0,0,0,0],[9E9,9E9,9E9,9E9,9E9,9E9]],v36,z1,tADSK27\WObj:=wADSK0;
    MoveL [[1085.523,-43.647,-2.061],[0,-0.70710678,0.70710678,0],[0,0,0,0],[9E9,9E9,9E9,9E9,9E9,9E9]],v36,z1,tADSK27\WObj:=wADSK0;
    MoveL [[1085.003,-41.528,-2.137],[0,-0.70710678,0.70710678,0],[0,0,0,0],[9E9,9E9,9E9,9E9,9E9,9E9]],v36,z1,tADSK27\WObj:=wADSK0;
    MoveL [[1083.764,-39.733,-2.214],[0,-0.70710678,0.70710678,0],[0,0,0,0],[9E9,9E9,9E9,9E9,9E9,9E9]],v36,z1,tADSK27\WObj:=wADSK0;
    MoveL [[1081.967,-38.496,-2.29],[0,-0.70710678,0.70710678,0],[0,0,0,0],[9E9,9E9,9E9,9E9,9E9,9E9]],v36,z1,tADSK27\WObj:=wADSK0;
    MoveL [[1079.848,-37.979,-2.367],[0,-0.70710678,0.70710678,0],[0,0,0,0],[9E9,9E9,9E9,9E9,9E9,9E9]],v36,z1,tADSK27\WObj:=wADSK0;
    MoveL [[1077.684,-38.249,-2.444],[0,-0.70710678,0.70710678,0],[0,0,0,0],[9E9,9E9,9E9,9E9,9E9,9E9]],v36,z1,tADSK27\WObj:=wADSK0;
    MoveL [[1075.757,-39.272,-2.52],[0,-0.70710678,0.70710678,0],[0,0,0,0],[9E9,9E9,9E9,9E9,9E9,9E9]],v36,z1,tADSK27\WObj:=wADSK0;
    MoveL [[1074.319,-40.913,-2.597],[0,-0.70710678,0.70710678,0],[0,0,0,0],[9E9,9E9,9E9,9E9,9E9,9E9]],v36,z1,tADSK27\WObj:=wADSK0;
    MoveL [[1073.56,-42.957,-2.673],[0,-0.70710678,0.70710678,0],[0,0,0,0],[9E9,9E9,9E9,9E9,9E9,9E9]],v36,z1,tADSK27\WObj:=wADSK0;
    MoveL [[1073.577,-45.139,-2.75],[0,-0.70710678,0.70710678,0],[0,0,0,0],[9E9,9E9,9E9,9E9,9E9,9E9]],v36,z1,tADSK27\WObj:=wADSK0;
    MoveL [[1074.368,-47.171,-2.827],[0,-0.70710678,0.70710678,0],[0,0,0,0],[9E9,9E9,9E9,9E9,9E9,9E9]],v36,z1,tADSK27\WObj:=wADSK0;
    MoveL [[1075.831,-48.79,-2.903],[0,-0.70710678,0.70710678,0],[0,0,0,0],[9E9,9E9,9E9,9E9,9E9,9E9]],v36,z1,tADSK27\WObj:=wADSK0;
    MoveL [[1077.774,-49.782,-2.98],[0,-0.70710678,0.70710678,0],[0,0,0,0],[9E9,9E9,9E9,9E9,9E9,9E9]],v36,z1,tADSK27\WObj:=wADSK0;
    MoveL [[1079.942,-50.018,-3.056],[0,-0.70710678,0.70710678,0],[0,0,0,0],[9E9,9E9,9E9,9E9,9E9,9E9]],v36,z1,tADSK27\WObj:=wADSK0;
    MoveL [[1082.053,-49.468,-3.133],[0,-0.70710678,0.70710678,0],[0,0,0,0],[9E9,9E9,9E9,9E9,9E9,9E9]],v36,z1,tADSK27\WObj:=wADSK0;
    MoveL [[1083.83,-48.203,-3.21],[0,-0.70710678,0.70710678,0],[0,0,0,0],[9E9,9E9,9E9,9E9,9E9,9E9]],v36,z1,tADSK27\WObj:=wADSK0;
    MoveL [[1085.041,-46.388,-3.286],[0,-0.70710678,0.70710678,0],[0,0,0,0],[9E9,9E9,9E9,9E9,9E9,9E9]],v36,z1,tADSK27\WObj:=wADSK0;
    MoveL [[1085.528,-44.262,-3.363],[0,-0.70710678,0.70710678,0],[0,0,0,0],[9E9,9E9,9E9,9E9,9E9,9E9]],v36,z1,tADSK27\WObj:=wADSK0;
    MoveL [[1085.226,-42.102,-3.439],[0,-0.70710678,0.70710678,0],[0,0,0,0],[9E9,9E9,9E9,9E9,9E9,9E9]],v36,z1,tADSK27\WObj:=wADSK0;
    MoveL [[1084.176,-40.19,-3.516],[0,-0.70710678,0.70710678,0],[0,0,0,0],[9E9,9E9,9E9,9E9,9E9,9E9]],v36,z1,tADSK27\WObj:=wADSK0;
    MoveL [[1082.515,-38.776,-3.593],[0,-0.70710678,0.70710678,0],[0,0,0,0],[9E9,9E9,9E9,9E9,9E9,9E9]],v36,z1,tADSK27\WObj:=wADSK0;
    MoveL [[1080.46,-38.046,-3.669],[0,-0.70710678,0.70710678,0],[0,0,0,0],[9E9,9E9,9E9,9E9,9E9,9E9]],v36,z1,tADSK27\WObj:=wADSK0;
    MoveL [[1078.279,-38.094,-3.746],[0,-0.70710678,0.70710678,0],[0,0,0,0],[9E9,9E9,9E9,9E9,9E9,9E9]],v36,z1,tADSK27\WObj:=wADSK0;
    MoveL [[1076.258,-38.915,-3.822],[0,-0.70710678,0.70710678,0],[0,0,0,0],[9E9,9E9,9E9,9E9,9E9,9E9]],v36,z1,tADSK27\WObj:=wADSK0;
    MoveL [[1074.661,-40.401,-3.899],[0,-0.70710678,0.70710678,0],[0,0,0,0],[9E9,9E9,9E9,9E9,9E9,9E9]],v36,z1,tADSK27\WObj:=wADSK0;
    MoveL [[1073.697,-42.358,-3.976],[0,-0.70710678,0.70710678,0],[0,0,0,0],[9E9,9E9,9E9,9E9,9E9,9E9]],v36,z1,tADSK27\WObj:=wADSK0;
    MoveL [[1073.492,-44.53,-4.052],[0,-0.70710678,0.70710678,0],[0,0,0,0],[9E9,9E9,9E9,9E9,9E9,9E9]],v36,z1,tADSK27\WObj:=wADSK0;
    MoveL [[1074.072,-46.632,-4.129],[0,-0.70710678,0.70710678,0],[0,0,0,0],[9E9,9E9,9E9,9E9,9E9,9E9]],v36,z1,tADSK27\WObj:=wADSK0;
    MoveL [[1075.363,-48.391,-4.205],[0,-0.70710678,0.70710678,0],[0,0,0,0],[9E9,9E9,9E9,9E9,9E9,9E9]],v36,z1,tADSK27\WObj:=wADSK0;
    MoveL [[1077.194,-49.576,-4.282],[0,-0.70710678,0.70710678,0],[0,0,0,0],[9E9,9E9,9E9,9E9,9E9,9E9]],v36,z1,tADSK27\WObj:=wADSK0;
    MoveL [[1079.327,-50.032,-4.359],[0,-0.70710678,0.70710678,0],[0,0,0,0],[9E9,9E9,9E9,9E9,9E9,9E9]],v36,z1,tADSK27\WObj:=wADSK0;
    MoveL [[1081.483,-49.699,-4.435],[0,-0.70710678,0.70710678,0],[0,0,0,0],[9E9,9E9,9E9,9E9,9E9,9E9]],v36,z1,tADSK27\WObj:=wADSK0;
    MoveL [[1083.38,-48.622,-4.512],[0,-0.70710678,0.70710678,0],[0,0,0,0],[9E9,9E9,9E9,9E9,9E9,9E9]],v36,z1,tADSK27\WObj:=wADSK0;
    MoveL [[1084.769,-46.94,-4.588],[0,-0.70710678,0.70710678,0],[0,0,0,0],[9E9,9E9,9E9,9E9,9E9,9E9]],v36,z1,tADSK27\WObj:=wADSK0;
    MoveL [[1085.47,-44.875,-4.665],[0,-0.70710678,0.70710678,0],[0,0,0,0],[9E9,9E9,9E9,9E9,9E9,9E9]],v36,z1,tADSK27\WObj:=wADSK0;
    MoveL [[1085.39,-42.695,-4.742],[0,-0.70710678,0.70710678,0],[0,0,0,0],[9E9,9E9,9E9,9E9,9E9,9E9]],v36,z1,tADSK27\WObj:=wADSK0;
    MoveL [[1084.54,-40.686,-4.818],[0,-0.70710678,0.70710678,0],[0,0,0,0],[9E9,9E9,9E9,9E9,9E9,9E9]],v36,z1,tADSK27\WObj:=wADSK0;
    MoveL [[1083.032,-39.11,-4.895],[0,-0.70710678,0.70710678,0],[0,0,0,0],[9E9,9E9,9E9,9E9,9E9,9E9]],v36,z1,tADSK27\WObj:=wADSK0;
    MoveL [[1081.061,-38.174,-4.971],[0,-0.70710678,0.70710678,0],[0,0,0,0],[9E9,9E9,9E9,9E9,9E9,9E9]],v36,z1,tADSK27\WObj:=wADSK0;
    MoveL [[1078.887,-38.001,-5.048],[0,-0.70710678,0.70710678,0],[0,0,0,0],[9E9,9E9,9E9,9E9,9E9,9E9]],v36,z1,tADSK27\WObj:=wADSK0;
    MoveL [[1076.793,-38.611,-5.124],[0,-0.70710678,0.70710678,0],[0,0,0,0],[9E9,9E9,9E9,9E9,9E9,9E9]],v36,z1,tADSK27\WObj:=wADSK0;
    MoveL [[1075.053,-39.927,-5.201],[0,-0.70710678,0.70710678,0],[0,0,0,0],[9E9,9E9,9E9,9E9,9E9,9E9]],v36,z1,tADSK27\WObj:=wADSK0;
    MoveL [[1073.894,-41.775,-5.278],[0,-0.70710678,0.70710678,0],[0,0,0,0],[9E9,9E9,9E9,9E9,9E9,9E9]],v36,z1,tADSK27\WObj:=wADSK0;
    MoveL [[1073.469,-43.915,-5.354],[0,-0.70710678,0.70710678,0],[0,0,0,0],[9E9,9E9,9E9,9E9,9E9,9E9]],v36,z1,tADSK27\WObj:=wADSK0;
    MoveL [[1073.833,-46.066,-5.431],[0,-0.70710678,0.70710678,0],[0,0,0,0],[9E9,9E9,9E9,9E9,9E9,9E9]],v36,z1,tADSK27\WObj:=wADSK0;
    MoveL [[1074.937,-47.947,-5.507],[0,-0.70710678,0.70710678,0],[0,0,0,0],[9E9,9E9,9E9,9E9,9E9,9E9]],v36,z1,tADSK27\WObj:=wADSK0;
    MoveL [[1076.638,-49.312,-5.584],[0,-0.70710678,0.70710678,0],[0,0,0,0],[9E9,9E9,9E9,9E9,9E9,9E9]],v36,z1,tADSK27\WObj:=wADSK0;
    MoveL [[1078.714,-49.983,-5.661],[0,-0.70710678,0.70710678,0],[0,0,0,0],[9E9,9E9,9E9,9E9,9E9,9E9]],v36,z1,tADSK27\WObj:=wADSK0;
    MoveL [[1080.893,-49.871,-5.737],[0,-0.70710678,0.70710678,0],[0,0,0,0],[9E9,9E9,9E9,9E9,9E9,9E9]],v36,z1,tADSK27\WObj:=wADSK0;
    MoveL [[1082.889,-48.993,-5.814],[0,-0.70710678,0.70710678,0],[0,0,0,0],[9E9,9E9,9E9,9E9,9E9,9E9]],v36,z1,tADSK27\WObj:=wADSK0;
    MoveL [[1084.443,-47.462,-5.89],[0,-0.70710678,0.70710678,0],[0,0,0,0],[9E9,9E9,9E9,9E9,9E9,9E9]],v36,z1,tADSK27\WObj:=wADSK0;
    MoveL [[1085.35,-45.478,-5.967],[0,-0.70710678,0.70710678,0],[0,0,0,0],[9E9,9E9,9E9,9E9,9E9,9E9]],v36,z1,tADSK27\WObj:=wADSK0;
    MoveL [[1085.493,-43.301,-6.044],[0,-0.70710678,0.70710678,0],[0,0,0,0],[9E9,9E9,9E9,9E9,9E9,9E9]],v36,z1,tADSK27\WObj:=wADSK0;
    MoveL [[1084.852,-41.216,-6.12],[0,-0.70710678,0.70710678,0],[0,0,0,0],[9E9,9E9,9E9,9E9,9E9,9E9]],v36,z1,tADSK27\WObj:=wADSK0;
    MoveL [[1083.511,-39.495,-6.197],[0,-0.70710678,0.70710678,0],[0,0,0,0],[9E9,9E9,9E9,9E9,9E9,9E9]],v36,z1,tADSK27\WObj:=wADSK0;
    MoveL [[1081.646,-38.364,-6.273],[0,-0.70710678,0.70710678,0],[0,0,0,0],[9E9,9E9,9E9,9E9,9E9,9E9]],v36,z1,tADSK27\WObj:=wADSK0;
    MoveL [[1079.501,-37.969,-6.35],[0,-0.70710678,0.70710678,0],[0,0,0,0],[9E9,9E9,9E9,9E9,9E9,9E9]],v36,z1,tADSK27\WObj:=wADSK0;
    ! Cutting Move Starts
    MoveL [[1076.289,-37.969,-6.35],[0,-0.70710678,0.70710678,0],[0,0,0,0],[9E9,9E9,9E9,9E9,9E9,9E9]],v107,z1,tADSK27\WObj:=wADSK0;
    MoveL [[1074.87,-38.349,-6.35],[0,-0.70710678,0.70710678,0],[0,0,0,0],[9E9,9E9,9E9,9E9,9E9,9E9]],v107,z1,tADSK27\WObj:=wADSK0;
    MoveL [[1073.831,-39.389,-6.35],[0,-0.70710678,0.70710678,0],[0,0,0,0],[9E9,9E9,9E9,9E9,9E9,9E9]],v107,z1,tADSK27\WObj:=wADSK0;
    MoveL [[1073.45,-40.808,-6.35],[0,-0.70710678,0.70710678,0],[0,0,0,0],[9E9,9E9,9E9,9E9,9E9,9E9]],v107,z1,tADSK27\WObj:=wADSK0;
    MoveL [[1073.448,-1178.392,-6.35],[0,-0.70710678,0.70710678,0],[0,0,0,0],[9E9,9E9,9E9,9E9,9E9,9E9]],v107,z1,tADSK27\WObj:=wADSK0;
    MoveL [[1073.829,-1179.812,-6.35],[0,-0.70710678,0.70710678,0],[0,0,0,0],[9E9,9E9,9E9,9E9,9E9,9E9]],v107,z1,tADSK27\WObj:=wADSK0;
    MoveL [[1074.868,-1180.851,-6.35],[0,-0.70710678,0.70710678,0],[0,0,0,0],[9E9,9E9,9E9,9E9,9E9,9E9]],v107,z1,tADSK27\WObj:=wADSK0;
    MoveL [[1076.287,-1181.232,-6.35],[0,-0.70710678,0.70710678,0],[0,0,0,0],[9E9,9E9,9E9,9E9,9E9,9E9]],v107,z1,tADSK27\WObj:=wADSK0;
    MoveL [[1082.711,-1181.232,-6.35],[0,-0.70710678,0.70710678,0],[0,0,0,0],[9E9,9E9,9E9,9E9,9E9,9E9]],v107,z1,tADSK27\WObj:=wADSK0;
    MoveL [[1084.13,-1180.851,-6.35],[0,-0.70710678,0.70710678,0],[0,0,0,0],[9E9,9E9,9E9,9E9,9E9,9E9]],v107,z1,tADSK27\WObj:=wADSK0;
    MoveL [[1085.169,-1179.812,-6.35],[0,-0.70710678,0.70710678,0],[0,0,0,0],[9E9,9E9,9E9,9E9,9E9,9E9]],v107,z1,tADSK27\WObj:=wADSK0;
    MoveL [[1085.55,-1178.392,-6.35],[0,-0.70710678,0.70710678,0],[0,0,0,0],[9E9,9E9,9E9,9E9,9E9,9E9]],v107,z1,tADSK27\WObj:=wADSK0;
    MoveL [[1085.552,-40.808,-6.35],[0,-0.70710678,0.70710678,0],[0,0,0,0],[9E9,9E9,9E9,9E9,9E9,9E9]],v107,z1,tADSK27\WObj:=wADSK0;
    MoveL [[1085.171,-39.389,-6.35],[0,-0.70710678,0.70710678,0],[0,0,0,0],[9E9,9E9,9E9,9E9,9E9,9E9]],v107,z1,tADSK27\WObj:=wADSK0;
    MoveL [[1084.132,-38.35,-6.35],[0,-0.70710678,0.70710678,0],[0,0,0,0],[9E9,9E9,9E9,9E9,9E9,9E9]],v107,z1,tADSK27\WObj:=wADSK0;
    MoveL [[1082.712,-37.969,-6.35],[0,-0.70710678,0.70710678,0],[0,0,0,0],[9E9,9E9,9E9,9E9,9E9,9E9]],v107,z1,tADSK27\WObj:=wADSK0;
    MoveL [[1079.501,-37.969,-6.35],[0,-0.70710678,0.70710678,0],[0,0,0,0],[9E9,9E9,9E9,9E9,9E9,9E9]],v107,z1,tADSK27\WObj:=wADSK0;
    ! Link Move Starts
    MoveL [[1077.474,-37.667,-6.35],[0,-0.70710678,0.70710678,0],[0,0,0,0],[9E9,9E9,9E9,9E9,9E9,9E9]],v107,z1,tADSK27\WObj:=wADSK0;
    MoveL [[1075.622,-36.787,-6.35],[0,-0.70710678,0.70710678,0],[0,0,0,0],[9E9,9E9,9E9,9E9,9E9,9E9]],v107,z1,tADSK27\WObj:=wADSK0;
    MoveL [[1074.108,-35.406,-6.35],[0,-0.70710678,0.70710678,0],[0,0,0,0],[9E9,9E9,9E9,9E9,9E9,9E9]],v107,z1,tADSK27\WObj:=wADSK0;
    MoveL [[1073.062,-33.643,-6.35],[0,-0.70710678,0.70710678,0],[0,0,0,0],[9E9,9E9,9E9,9E9,9E9,9E9]],v107,z1,tADSK27\WObj:=wADSK0;
    MoveL [[1072.209,-32.354,-6.35],[0,-0.70710678,0.70710678,0],[0,0,0,0],[9E9,9E9,9E9,9E9,9E9,9E9]],v107,z1,tADSK27\WObj:=wADSK0;
    MoveL [[1070.928,-31.49,-6.35],[0,-0.70710678,0.70710678,0],[0,0,0,0],[9E9,9E9,9E9,9E9,9E9,9E9]],v107,z1,tADSK27\WObj:=wADSK0;
    MoveL [[1069.414,-31.184,-6.35],[0,-0.70710678,0.70710678,0],[0,0,0,0],[9E9,9E9,9E9,9E9,9E9,9E9]],v107,z1,tADSK27\WObj:=wADSK0;
    MoveL [[1067.897,-31.482,-6.35],[0,-0.70710678,0.70710678,0],[0,0,0,0],[9E9,9E9,9E9,9E9,9E9,9E9]],v107,z1,tADSK27\WObj:=wADSK0;
    MoveL [[1066.611,-32.338,-6.35],[0,-0.70710678,0.70710678,0],[0,0,0,0],[9E9,9E9,9E9,9E9,9E9,9E9]],v107,z1,tADSK27\WObj:=wADSK0;
    MoveL [[1065.751,-33.622,-6.35],[0,-0.70710678,0.70710678,0],[0,0,0,0],[9E9,9E9,9E9,9E9,9E9,9E9]],v107,z1,tADSK27\WObj:=wADSK0;
    MoveL [[1065.449,-35.137,-6.35],[0,-0.70710678,0.70710678,0],[0,0,0,0],[9E9,9E9,9E9,9E9,9E9,9E9]],v107,z1,tADSK27\WObj:=wADSK0;
    ! Cutting Move Starts
    MoveL [[1065.448,-1186.394,-6.35],[0,-0.70710678,0.70710678,0],[0,0,0,0],[9E9,9E9,9E9,9E9,9E9,9E9]],v107,z1,tADSK27\WObj:=wADSK0;
    MoveL [[1065.828,-1187.813,-6.35],[0,-0.70710678,0.70710678,0],[0,0,0,0],[9E9,9E9,9E9,9E9,9E9,9E9]],v107,z1,tADSK27\WObj:=wADSK0;
    MoveL [[1066.867,-1188.852,-6.35],[0,-0.70710678,0.70710678,0],[0,0,0,0],[9E9,9E9,9E9,9E9,9E9,9E9]],v107,z1,tADSK27\WObj:=wADSK0;
    MoveL [[1068.286,-1189.233,-6.35],[0,-0.70710678,0.70710678,0],[0,0,0,0],[9E9,9E9,9E9,9E9,9E9,9E9]],v107,z1,tADSK27\WObj:=wADSK0;
    MoveL [[1090.712,-1189.233,-6.35],[0,-0.70710678,0.70710678,0],[0,0,0,0],[9E9,9E9,9E9,9E9,9E9,9E9]],v107,z1,tADSK27\WObj:=wADSK0;
    MoveL [[1092.131,-1188.852,-6.35],[0,-0.70710678,0.70710678,0],[0,0,0,0],[9E9,9E9,9E9,9E9,9E9,9E9]],v107,z1,tADSK27\WObj:=wADSK0;
    MoveL [[1093.17,-1187.813,-6.35],[0,-0.70710678,0.70710678,0],[0,0,0,0],[9E9,9E9,9E9,9E9,9E9,9E9]],v107,z1,tADSK27\WObj:=wADSK0;
    MoveL [[1093.551,-1186.393,-6.35],[0,-0.70710678,0.70710678,0],[0,0,0,0],[9E9,9E9,9E9,9E9,9E9,9E9]],v107,z1,tADSK27\WObj:=wADSK0;
    MoveL [[1093.552,-32.807,-6.35],[0,-0.70710678,0.70710678,0],[0,0,0,0],[9E9,9E9,9E9,9E9,9E9,9E9]],v107,z1,tADSK27\WObj:=wADSK0;
    MoveL [[1093.172,-31.388,-6.35],[0,-0.70710678,0.70710678,0],[0,0,0,0],[9E9,9E9,9E9,9E9,9E9,9E9]],v107,z1,tADSK27\WObj:=wADSK0;
    MoveL [[1092.133,-30.349,-6.35],[0,-0.70710678,0.70710678,0],[0,0,0,0],[9E9,9E9,9E9,9E9,9E9,9E9]],v107,z1,tADSK27\WObj:=wADSK0;
    MoveL [[1090.714,-29.968,-6.35],[0,-0.70710678,0.70710678,0],[0,0,0,0],[9E9,9E9,9E9,9E9,9E9,9E9]],v107,z1,tADSK27\WObj:=wADSK0;
    MoveL [[1068.288,-29.968,-6.35],[0,-0.70710678,0.70710678,0],[0,0,0,0],[9E9,9E9,9E9,9E9,9E9,9E9]],v107,z1,tADSK27\WObj:=wADSK0;
    MoveL [[1066.869,-30.348,-6.35],[0,-0.70710678,0.70710678,0],[0,0,0,0],[9E9,9E9,9E9,9E9,9E9,9E9]],v107,z1,tADSK27\WObj:=wADSK0;
    MoveL [[1065.83,-31.387,-6.35],[0,-0.70710678,0.70710678,0],[0,0,0,0],[9E9,9E9,9E9,9E9,9E9,9E9]],v107,z1,tADSK27\WObj:=wADSK0;
    MoveL [[1065.449,-32.807,-6.35],[0,-0.70710678,0.70710678,0],[0,0,0,0],[9E9,9E9,9E9,9E9,9E9,9E9]],v107,z1,tADSK27\WObj:=wADSK0;
    MoveL [[1065.449,-35.137,-6.35],[0,-0.70710678,0.70710678,0],[0,0,0,0],[9E9,9E9,9E9,9E9,9E9,9E9]],v107,z1,tADSK27\WObj:=wADSK0;
    ! Link Move Starts
    MoveL [[1065.17,-37.021,-6.35],[0,-0.70710678,0.70710678,0],[0,0,0,0],[9E9,9E9,9E9,9E9,9E9,9E9]],v107,z1,tADSK27\WObj:=wADSK0;
    MoveL [[1064.358,-38.743,-6.35],[0,-0.70710678,0.70710678,0],[0,0,0,0],[9E9,9E9,9E9,9E9,9E9,9E9]],v107,z1,tADSK27\WObj:=wADSK0;
    MoveL [[1063.08,-40.156,-6.35],[0,-0.70710678,0.70710678,0],[0,0,0,0],[9E9,9E9,9E9,9E9,9E9,9E9]],v107,z1,tADSK27\WObj:=wADSK0;
    MoveL [[1061.449,-41.138,-6.35],[0,-0.70710678,0.70710678,0],[0,0,0,0],[9E9,9E9,9E9,9E9,9E9,9E9]],v107,z1,tADSK27\WObj:=wADSK0;
    MoveL [[1059.817,-42.12,-6.35],[0,-0.70710678,0.70710678,0],[0,0,0,0],[9E9,9E9,9E9,9E9,9E9,9E9]],v107,z1,tADSK27\WObj:=wADSK0;
    MoveL [[1058.54,-43.532,-6.35],[0,-0.70710678,0.70710678,0],[0,0,0,0],[9E9,9E9,9E9,9E9,9E9,9E9]],v107,z1,tADSK27\WObj:=wADSK0;
    MoveL [[1057.727,-45.255,-6.35],[0,-0.70710678,0.70710678,0],[0,0,0,0],[9E9,9E9,9E9,9E9,9E9,9E9]],v107,z1,tADSK27\WObj:=wADSK0;
    MoveL [[1057.448,-47.138,-6.35],[0,-0.70710678,0.70710678,0],[0,0,0,0],[9E9,9E9,9E9,9E9,9E9,9E9]],v107,z1,tADSK27\WObj:=wADSK0;
    ! Cutting Move Starts
    MoveL [[1057.447,-1194.395,-6.35],[0,-0.70710678,0.70710678,0],[0,0,0,0],[9E9,9E9,9E9,9E9,9E9,9E9]],v107,z1,tADSK27\WObj:=wADSK0;
    MoveL [[1057.827,-1195.814,-6.35],[0,-0.70710678,0.70710678,0],[0,0,0,0],[9E9,9E9,9E9,9E9,9E9,9E9]],v107,z1,tADSK27\WObj:=wADSK0;
    MoveL [[1058.866,-1196.853,-6.35],[0,-0.70710678,0.70710678,0],[0,0,0,0],[9E9,9E9,9E9,9E9,9E9,9E9]],v107,z1,tADSK27\WObj:=wADSK0;
    MoveL [[1060.286,-1197.234,-6.35],[0,-0.70710678,0.70710678,0],[0,0,0,0],[9E9,9E9,9E9,9E9,9E9,9E9]],v107,z1,tADSK27\WObj:=wADSK0;
    MoveL [[1098.713,-1197.234,-6.35],[0,-0.70710678,0.70710678,0],[0,0,0,0],[9E9,9E9,9E9,9E9,9E9,9E9]],v107,z1,tADSK27\WObj:=wADSK0;
    MoveL [[1100.132,-1196.853,-6.35],[0,-0.70710678,0.70710678,0],[0,0,0,0],[9E9,9E9,9E9,9E9,9E9,9E9]],v107,z1,tADSK27\WObj:=wADSK0;
    MoveL [[1101.171,-1195.814,-6.35],[0,-0.70710678,0.70710678,0],[0,0,0,0],[9E9,9E9,9E9,9E9,9E9,9E9]],v107,z1,tADSK27\WObj:=wADSK0;
    MoveL [[1101.552,-1194.395,-6.35],[0,-0.70710678,0.70710678,0],[0,0,0,0],[9E9,9E9,9E9,9E9,9E9,9E9]],v107,z1,tADSK27\WObj:=wADSK0;
    MoveL [[1101.553,-24.807,-6.35],[0,-0.70710678,0.70710678,0],[0,0,0,0],[9E9,9E9,9E9,9E9,9E9,9E9]],v107,z1,tADSK27\WObj:=wADSK0;
    MoveL [[1101.173,-23.387,-6.35],[0,-0.70710678,0.70710678,0],[0,0,0,0],[9E9,9E9,9E9,9E9,9E9,9E9]],v107,z1,tADSK27\WObj:=wADSK0;
    MoveL [[1100.134,-22.348,-6.35],[0,-0.70710678,0.70710678,0],[0,0,0,0],[9E9,9E9,9E9,9E9,9E9,9E9]],v107,z1,tADSK27\WObj:=wADSK0;
    MoveL [[1098.714,-21.968,-6.35],[0,-0.70710678,0.70710678,0],[0,0,0,0],[9E9,9E9,9E9,9E9,9E9,9E9]],v107,z1,tADSK27\WObj:=wADSK0;
    MoveL [[1060.287,-21.967,-6.35],[0,-0.70710678,0.70710678,0],[0,0,0,0],[9E9,9E9,9E9,9E9,9E9,9E9]],v107,z1,tADSK27\WObj:=wADSK0;
    MoveL [[1058.868,-22.347,-6.35],[0,-0.70710678,0.70710678,0],[0,0,0,0],[9E9,9E9,9E9,9E9,9E9,9E9]],v107,z1,tADSK27\WObj:=wADSK0;
    MoveL [[1057.829,-23.386,-6.35],[0,-0.70710678,0.70710678,0],[0,0,0,0],[9E9,9E9,9E9,9E9,9E9,9E9]],v107,z1,tADSK27\WObj:=wADSK0;
    MoveL [[1057.448,-24.806,-6.35],[0,-0.70710678,0.70710678,0],[0,0,0,0],[9E9,9E9,9E9,9E9,9E9,9E9]],v107,z1,tADSK27\WObj:=wADSK0;
    MoveL [[1057.448,-47.138,-6.35],[0,-0.70710678,0.70710678,0],[0,0,0,0],[9E9,9E9,9E9,9E9,9E9,9E9]],v107,z1,tADSK27\WObj:=wADSK0;
    ! Link Move Starts
    MoveL [[1057.169,-49.022,-6.35],[0,-0.70710678,0.70710678,0],[0,0,0,0],[9E9,9E9,9E9,9E9,9E9,9E9]],v107,z1,tADSK27\WObj:=wADSK0;
    MoveL [[1056.357,-50.744,-6.35],[0,-0.70710678,0.70710678,0],[0,0,0,0],[9E9,9E9,9E9,9E9,9E9,9E9]],v107,z1,tADSK27\WObj:=wADSK0;
    MoveL [[1055.08,-52.157,-6.35],[0,-0.70710678,0.70710678,0],[0,0,0,0],[9E9,9E9,9E9,9E9,9E9,9E9]],v107,z1,tADSK27\WObj:=wADSK0;
    MoveL [[1053.448,-53.139,-6.35],[0,-0.70710678,0.70710678,0],[0,0,0,0],[9E9,9E9,9E9,9E9,9E9,9E9]],v107,z1,tADSK27\WObj:=wADSK0;
    MoveL [[1051.816,-54.121,-6.35],[0,-0.70710678,0.70710678,0],[0,0,0,0],[9E9,9E9,9E9,9E9,9E9,9E9]],v107,z1,tADSK27\WObj:=wADSK0;
    MoveL [[1050.539,-55.534,-6.35],[0,-0.70710678,0.70710678,0],[0,0,0,0],[9E9,9E9,9E9,9E9,9E9,9E9]],v107,z1,tADSK27\WObj:=wADSK0;
    MoveL [[1049.726,-57.256,-6.35],[0,-0.70710678,0.70710678,0],[0,0,0,0],[9E9,9E9,9E9,9E9,9E9,9E9]],v107,z1,tADSK27\WObj:=wADSK0;
    MoveL [[1049.447,-59.14,-6.35],[0,-0.70710678,0.70710678,0],[0,0,0,0],[9E9,9E9,9E9,9E9,9E9,9E9]],v107,z1,tADSK27\WObj:=wADSK0;
    ! Cutting Move Starts
    MoveL [[1049.445,-1202.396,-6.35],[0,-0.70710678,0.70710678,0],[0,0,0,0],[9E9,9E9,9E9,9E9,9E9,9E9]],v107,z1,tADSK27\WObj:=wADSK0;
    MoveL [[1049.826,-1203.815,-6.35],[0,-0.70710678,0.70710678,0],[0,0,0,0],[9E9,9E9,9E9,9E9,9E9,9E9]],v107,z1,tADSK27\WObj:=wADSK0;
    MoveL [[1050.865,-1204.854,-6.35],[0,-0.70710678,0.70710678,0],[0,0,0,0],[9E9,9E9,9E9,9E9,9E9,9E9]],v107,z1,tADSK27\WObj:=wADSK0;
    MoveL [[1052.285,-1205.234,-6.35],[0,-0.70710678,0.70710678,0],[0,0,0,0],[9E9,9E9,9E9,9E9,9E9,9E9]],v107,z1,tADSK27\WObj:=wADSK0;
    MoveL [[1106.714,-1205.234,-6.35],[0,-0.70710678,0.70710678,0],[0,0,0,0],[9E9,9E9,9E9,9E9,9E9,9E9]],v107,z1,tADSK27\WObj:=wADSK0;
    MoveL [[1108.133,-1204.854,-6.35],[0,-0.70710678,0.70710678,0],[0,0,0,0],[9E9,9E9,9E9,9E9,9E9,9E9]],v107,z1,tADSK27\WObj:=wADSK0;
    MoveL [[1109.172,-1203.815,-6.35],[0,-0.70710678,0.70710678,0],[0,0,0,0],[9E9,9E9,9E9,9E9,9E9,9E9]],v107,z1,tADSK27\WObj:=wADSK0;
    MoveL [[1109.553,-1202.396,-6.35],[0,-0.70710678,0.70710678,0],[0,0,0,0],[9E9,9E9,9E9,9E9,9E9,9E9]],v107,z1,tADSK27\WObj:=wADSK0;
    MoveL [[1109.555,-16.806,-6.35],[0,-0.70710678,0.70710678,0],[0,0,0,0],[9E9,9E9,9E9,9E9,9E9,9E9]],v107,z1,tADSK27\WObj:=wADSK0;
    MoveL [[1109.174,-15.386,-6.35],[0,-0.70710678,0.70710678,0],[0,0,0,0],[9E9,9E9,9E9,9E9,9E9,9E9]],v107,z1,tADSK27\WObj:=wADSK0;
    MoveL [[1108.135,-14.347,-6.35],[0,-0.70710678,0.70710678,0],[0,0,0,0],[9E9,9E9,9E9,9E9,9E9,9E9]],v107,z1,tADSK27\WObj:=wADSK0;
    MoveL [[1106.715,-13.967,-6.35],[0,-0.70710678,0.70710678,0],[0,0,0,0],[9E9,9E9,9E9,9E9,9E9,9E9]],v107,z1,tADSK27\WObj:=wADSK0;
    MoveL [[1052.286,-13.966,-6.35],[0,-0.70710678,0.70710678,0],[0,0,0,0],[9E9,9E9,9E9,9E9,9E9,9E9]],v107,z1,tADSK27\WObj:=wADSK0;
    MoveL [[1050.867,-14.346,-6.35],[0,-0.70710678,0.70710678,0],[0,0,0,0],[9E9,9E9,9E9,9E9,9E9,9E9]],v107,z1,tADSK27\WObj:=wADSK0;
    MoveL [[1049.828,-15.385,-6.35],[0,-0.70710678,0.70710678,0],[0,0,0,0],[9E9,9E9,9E9,9E9,9E9,9E9]],v107,z1,tADSK27\WObj:=wADSK0;
    MoveL [[1049.447,-16.805,-6.35],[0,-0.70710678,0.70710678,0],[0,0,0,0],[9E9,9E9,9E9,9E9,9E9,9E9]],v107,z1,tADSK27\WObj:=wADSK0;
    MoveL [[1049.447,-59.14,-6.35],[0,-0.70710678,0.70710678,0],[0,0,0,0],[9E9,9E9,9E9,9E9,9E9,9E9]],v107,z1,tADSK27\WObj:=wADSK0;
    ! Link Move Starts
    MoveL [[1049.167,-61.034,-6.35],[0,-0.70710678,0.70710678,0],[0,0,0,0],[9E9,9E9,9E9,9E9,9E9,9E9]],v107,z1,tADSK27\WObj:=wADSK0;
    MoveL [[1048.349,-62.766,-6.35],[0,-0.70710678,0.70710678,0],[0,0,0,0],[9E9,9E9,9E9,9E9,9E9,9E9]],v107,z1,tADSK27\WObj:=wADSK0;
    MoveL [[1047.065,-64.186,-6.35],[0,-0.70710678,0.70710678,0],[0,0,0,0],[9E9,9E9,9E9,9E9,9E9,9E9]],v107,z1,tADSK27\WObj:=wADSK0;
    MoveL [[1045.425,-65.174,-6.35],[0,-0.70710678,0.70710678,0],[0,0,0,0],[9E9,9E9,9E9,9E9,9E9,9E9]],v107,z1,tADSK27\WObj:=wADSK0;
    MoveL [[1043.784,-66.161,-6.35],[0,-0.70710678,0.70710678,0],[0,0,0,0],[9E9,9E9,9E9,9E9,9E9,9E9]],v107,z1,tADSK27\WObj:=wADSK0;
    MoveL [[1042.5,-67.582,-6.35],[0,-0.70710678,0.70710678,0],[0,0,0,0],[9E9,9E9,9E9,9E9,9E9,9E9]],v107,z1,tADSK27\WObj:=wADSK0;
    MoveL [[1041.682,-69.314,-6.35],[0,-0.70710678,0.70710678,0],[0,0,0,0],[9E9,9E9,9E9,9E9,9E9,9E9]],v107,z1,tADSK27\WObj:=wADSK0;
    MoveL [[1041.402,-71.208,-6.35],[0,-0.70710678,0.70710678,0],[0,0,0,0],[9E9,9E9,9E9,9E9,9E9,9E9]],v107,z1,tADSK27\WObj:=wADSK0;
    ! Cutting Move Starts
    MoveL [[1041.4,-1213.278,-6.35],[0,-0.70710678,0.70710678,0],[0,0,0,0],[9E9,9E9,9E9,9E9,9E9,9E9]],v107,z1,tADSK27\WObj:=wADSK0;
    MoveL [[1041.464,-1213.28,-6.35],[0,-0.70710678,0.70710678,0],[0,0,0,0],[9E9,9E9,9E9,9E9,9E9,9E9]],v107,z1,tADSK27\WObj:=wADSK0;
    MoveL [[1117.598,-1213.28,-6.35],[0,-0.70710678,0.70710678,0],[0,0,0,0],[9E9,9E9,9E9,9E9,9E9,9E9]],v107,z1,tADSK27\WObj:=wADSK0;
    MoveL [[1117.6,-5.921,-6.35],[0,-0.70710678,0.70710678,0],[0,0,0,0],[9E9,9E9,9E9,9E9,9E9,9E9]],v107,z1,tADSK27\WObj:=wADSK0;
    MoveL [[1041.402,-5.92,-6.35],[0,-0.70710678,0.70710678,0],[0,0,0,0],[9E9,9E9,9E9,9E9,9E9,9E9]],v107,z1,tADSK27\WObj:=wADSK0;
    MoveL [[1041.402,-71.208,-6.35],[0,-0.70710678,0.70710678,0],[0,0,0,0],[9E9,9E9,9E9,9E9,9E9,9E9]],v107,z1,tADSK27\WObj:=wADSK0;
    ! Link Move Starts
    MoveL [[1041.702,-71.748,-6.35],[0,-0.70710678,0.70710678,0],[0,0,0,0],[9E9,9E9,9E9,9E9,9E9,9E9]],v107,z1,tADSK27\WObj:=wADSK0;
    MoveL [[1042.319,-71.777,-6.35],[0,-0.70710678,0.70710678,0],[0,0,0,0],[9E9,9E9,9E9,9E9,9E9,9E9]],v107,z1,tADSK27\WObj:=wADSK0;
    MoveL [[1047.141,-69.389,-6.35],[0,-0.70710678,0.70710678,0],[0,0,0,0],[9E9,9E9,9E9,9E9,9E9,9E9]],v107,z1,tADSK27\WObj:=wADSK0;
    MoveL [[1047.229,-69.337,-6.35],[0,-0.70710678,0.70710678,0],[0,0,0,0],[9E9,9E9,9E9,9E9,9E9,9E9]],v107,z1,tADSK27\WObj:=wADSK0;
    MoveL [[1075.91,-48.795,-6.35],[0,-0.70710678,0.70710678,0],[0,0,0,0],[9E9,9E9,9E9,9E9,9E9,9E9]],v107,z1,tADSK27\WObj:=wADSK0;
    MoveL [[1075.937,-48.382,-6.35],[0,-0.70710678,0.70710678,0],[0,0,0,0],[9E9,9E9,9E9,9E9,9E9,9E9]],v107,z1,tADSK27\WObj:=wADSK0;
    MoveL [[1075.527,-48.436,-6.35],[0,-0.70710678,0.70710678,0],[0,0,0,0],[9E9,9E9,9E9,9E9,9E9,9E9]],v107,z1,tADSK27\WObj:=wADSK0;
    MoveL [[1075.659,-48.828,-6.35],[0,-0.70710678,0.70710678,0],[0,0,0,0],[9E9,9E9,9E9,9E9,9E9,9E9]],v107,z1,tADSK27\WObj:=wADSK0;
    MoveL [[1076.167,-49.021,-6.35],[0,-0.70710678,0.70710678,0],[0,0,0,0],[9E9,9E9,9E9,9E9,9E9,9E9]],v107,z1,tADSK27\WObj:=wADSK0;
    MoveL [[1076.506,-48.88,-6.35],[0,-0.70710678,0.70710678,0],[0,0,0,0],[9E9,9E9,9E9,9E9,9E9,9E9]],v107,z1,tADSK27\WObj:=wADSK0;
    MoveL [[1076.386,-48.533,-6.35],[0,-0.70710678,0.70710678,0],[0,0,0,0],[9E9,9E9,9E9,9E9,9E9,9E9]],v107,z1,tADSK27\WObj:=wADSK0;
    MoveL [[1076.032,-48.633,-6.35],[0,-0.70710678,0.70710678,0],[0,0,0,0],[9E9,9E9,9E9,9E9,9E9,9E9]],v107,z1,tADSK27\WObj:=wADSK0;
    MoveL [[1076.112,-48.992,-6.35],[0,-0.70710678,0.70710678,0],[0,0,0,0],[9E9,9E9,9E9,9E9,9E9,9E9]],v107,z1,tADSK27\WObj:=wADSK0;
    MoveL [[1078.106,-49.871,-6.427],[0,-0.70710678,0.70710678,0],[0,0,0,0],[9E9,9E9,9E9,9E9,9E9,9E9]],v36,z1,tADSK27\WObj:=wADSK0;
    MoveL [[1080.281,-49.983,-6.503],[0,-0.70710678,0.70710678,0],[0,0,0,0],[9E9,9E9,9E9,9E9,9E9,9E9]],v36,z1,tADSK27\WObj:=wADSK0;
    MoveL [[1082.356,-49.316,-6.58],[0,-0.70710678,0.70710678,0],[0,0,0,0],[9E9,9E9,9E9,9E9,9E9,9E9]],v36,z1,tADSK27\WObj:=wADSK0;
    MoveL [[1084.057,-47.955,-6.656],[0,-0.70710678,0.70710678,0],[0,0,0,0],[9E9,9E9,9E9,9E9,9E9,9E9]],v36,z1,tADSK27\WObj:=wADSK0;
    MoveL [[1085.165,-46.079,-6.733],[0,-0.70710678,0.70710678,0],[0,0,0,0],[9E9,9E9,9E9,9E9,9E9,9E9]],v36,z1,tADSK27\WObj:=wADSK0;
    MoveL [[1085.533,-43.931,-6.809],[0,-0.70710678,0.70710678,0],[0,0,0,0],[9E9,9E9,9E9,9E9,9E9,9E9]],v36,z1,tADSK27\WObj:=wADSK0;
    MoveL [[1085.115,-41.793,-6.886],[0,-0.70710678,0.70710678,0],[0,0,0,0],[9E9,9E9,9E9,9E9,9E9,9E9]],v36,z1,tADSK27\WObj:=wADSK0;
    MoveL [[1083.964,-39.943,-6.962],[0,-0.70710678,0.70710678,0],[0,0,0,0],[9E9,9E9,9E9,9E9,9E9,9E9]],v36,z1,tADSK27\WObj:=wADSK0;
    MoveL [[1082.231,-38.622,-7.039],[0,-0.70710678,0.70710678,0],[0,0,0,0],[9E9,9E9,9E9,9E9,9E9,9E9]],v36,z1,tADSK27\WObj:=wADSK0;
    MoveL [[1080.142,-38.003,-7.115],[0,-0.70710678,0.70710678,0],[0,0,0,0],[9E9,9E9,9E9,9E9,9E9,9E9]],v36,z1,tADSK27\WObj:=wADSK0;
    MoveL [[1077.969,-38.167,-7.192],[0,-0.70710678,0.70710678,0],[0,0,0,0],[9E9,9E9,9E9,9E9,9E9,9E9]],v36,z1,tADSK27\WObj:=wADSK0;
    MoveL [[1075.996,-39.092,-7.268],[0,-0.70710678,0.70710678,0],[0,0,0,0],[9E9,9E9,9E9,9E9,9E9,9E9]],v36,z1,tADSK27\WObj:=wADSK0;
    MoveL [[1074.481,-40.657,-7.345],[0,-0.70710678,0.70710678,0],[0,0,0,0],[9E9,9E9,9E9,9E9,9E9,9E9]],v36,z1,tADSK27\WObj:=wADSK0;
    MoveL [[1073.62,-42.658,-7.421],[0,-0.70710678,0.70710678,0],[0,0,0,0],[9E9,9E9,9E9,9E9,9E9,9E9]],v36,z1,tADSK27\WObj:=wADSK0;
    MoveL [[1073.526,-44.835,-7.498],[0,-0.70710678,0.70710678,0],[0,0,0,0],[9E9,9E9,9E9,9E9,9E9,9E9]],v36,z1,tADSK27\WObj:=wADSK0;
    MoveL [[1074.212,-46.903,-7.574],[0,-0.70710678,0.70710678,0],[0,0,0,0],[9E9,9E9,9E9,9E9,9E9,9E9]],v36,z1,tADSK27\WObj:=wADSK0;
    MoveL [[1075.588,-48.593,-7.651],[0,-0.70710678,0.70710678,0],[0,0,0,0],[9E9,9E9,9E9,9E9,9E9,9E9]],v36,z1,tADSK27\WObj:=wADSK0;
    MoveL [[1077.474,-49.683,-7.727],[0,-0.70710678,0.70710678,0],[0,0,0,0],[9E9,9E9,9E9,9E9,9E9,9E9]],v36,z1,tADSK27\WObj:=wADSK0;
    MoveL [[1079.625,-50.033,-7.804],[0,-0.70710678,0.70710678,0],[0,0,0,0],[9E9,9E9,9E9,9E9,9E9,9E9]],v36,z1,tADSK27\WObj:=wADSK0;
    MoveL [[1081.759,-49.596,-7.88],[0,-0.70710678,0.70710678,0],[0,0,0,0],[9E9,9E9,9E9,9E9,9E9,9E9]],v36,z1,tADSK27\WObj:=wADSK0;
    MoveL [[1083.599,-48.428,-7.957],[0,-0.70710678,0.70710678,0],[0,0,0,0],[9E9,9E9,9E9,9E9,9E9,9E9]],v36,z1,tADSK27\WObj:=wADSK0;
    MoveL [[1084.904,-46.684,-8.033],[0,-0.70710678,0.70710678,0],[0,0,0,0],[9E9,9E9,9E9,9E9,9E9,9E9]],v36,z1,tADSK27\WObj:=wADSK0;
    MoveL [[1085.505,-44.589,-8.11],[0,-0.70710678,0.70710678,0],[0,0,0,0],[9E9,9E9,9E9,9E9,9E9,9E9]],v36,z1,tADSK27\WObj:=wADSK0;
    MoveL [[1085.322,-42.418,-8.186],[0,-0.70710678,0.70710678,0],[0,0,0,0],[9E9,9E9,9E9,9E9,9E9,9E9]],v36,z1,tADSK27\WObj:=wADSK0;
    MoveL [[1084.38,-40.454,-8.263],[0,-0.70710678,0.70710678,0],[0,0,0,0],[9E9,9E9,9E9,9E9,9E9,9E9]],v36,z1,tADSK27\WObj:=wADSK0;
    MoveL [[1082.801,-38.952,-8.339],[0,-0.70710678,0.70710678,0],[0,0,0,0],[9E9,9E9,9E9,9E9,9E9,9E9]],v36,z1,tADSK27\WObj:=wADSK0;
    MoveL [[1080.792,-38.109,-8.416],[0,-0.70710678,0.70710678,0],[0,0,0,0],[9E9,9E9,9E9,9E9,9E9,9E9]],v36,z1,tADSK27\WObj:=wADSK0;
    MoveL [[1078.615,-38.035,-8.492],[0,-0.70710678,0.70710678,0],[0,0,0,0],[9E9,9E9,9E9,9E9,9E9,9E9]],v36,z1,tADSK27\WObj:=wADSK0;
    MoveL [[1076.553,-38.739,-8.569],[0,-0.70710678,0.70710678,0],[0,0,0,0],[9E9,9E9,9E9,9E9,9E9,9E9]],v36,z1,tADSK27\WObj:=wADSK0;
    MoveL [[1074.875,-40.129,-8.645],[0,-0.70710678,0.70710678,0],[0,0,0,0],[9E9,9E9,9E9,9E9,9E9,9E9]],v36,z1,tADSK27\WObj:=wADSK0;
    MoveL [[1073.801,-42.025,-8.722],[0,-0.70710678,0.70710678,0],[0,0,0,0],[9E9,9E9,9E9,9E9,9E9,9E9]],v36,z1,tADSK27\WObj:=wADSK0;
    MoveL [[1073.471,-44.179,-8.798],[0,-0.70710678,0.70710678,0],[0,0,0,0],[9E9,9E9,9E9,9E9,9E9,9E9]],v36,z1,tADSK27\WObj:=wADSK0;
    MoveL [[1073.927,-46.309,-8.875],[0,-0.70710678,0.70710678,0],[0,0,0,0],[9E9,9E9,9E9,9E9,9E9,9E9]],v36,z1,tADSK27\WObj:=wADSK0;
    MoveL [[1075.111,-48.139,-8.951],[0,-0.70710678,0.70710678,0],[0,0,0,0],[9E9,9E9,9E9,9E9,9E9,9E9]],v36,z1,tADSK27\WObj:=wADSK0;
    MoveL [[1076.867,-49.429,-9.028],[0,-0.70710678,0.70710678,0],[0,0,0,0],[9E9,9E9,9E9,9E9,9E9,9E9]],v36,z1,tADSK27\WObj:=wADSK0;
    MoveL [[1078.966,-50.01,-9.104],[0,-0.70710678,0.70710678,0],[0,0,0,0],[9E9,9E9,9E9,9E9,9E9,9E9]],v36,z1,tADSK27\WObj:=wADSK0;
    MoveL [[1081.136,-49.808,-9.181],[0,-0.70710678,0.70710678,0],[0,0,0,0],[9E9,9E9,9E9,9E9,9E9,9E9]],v36,z1,tADSK27\WObj:=wADSK0;
    MoveL [[1083.092,-48.849,-9.257],[0,-0.70710678,0.70710678,0],[0,0,0,0],[9E9,9E9,9E9,9E9,9E9,9E9]],v36,z1,tADSK27\WObj:=wADSK0;
    MoveL [[1084.58,-47.257,-9.334],[0,-0.70710678,0.70710678,0],[0,0,0,0],[9E9,9E9,9E9,9E9,9E9,9E9]],v36,z1,tADSK27\WObj:=wADSK0;
    MoveL [[1085.405,-45.24,-9.41],[0,-0.70710678,0.70710678,0],[0,0,0,0],[9E9,9E9,9E9,9E9,9E9,9E9]],v36,z1,tADSK27\WObj:=wADSK0;
    MoveL [[1085.46,-43.062,-9.487],[0,-0.70710678,0.70710678,0],[0,0,0,0],[9E9,9E9,9E9,9E9,9E9,9E9]],v36,z1,tADSK27\WObj:=wADSK0;
    MoveL [[1084.738,-41.007,-9.563],[0,-0.70710678,0.70710678,0],[0,0,0,0],[9E9,9E9,9E9,9E9,9E9,9E9]],v36,z1,tADSK27\WObj:=wADSK0;
    MoveL [[1083.332,-39.342,-9.64],[0,-0.70710678,0.70710678,0],[0,0,0,0],[9E9,9E9,9E9,9E9,9E9,9E9]],v36,z1,tADSK27\WObj:=wADSK0;
    MoveL [[1081.427,-38.285,-9.716],[0,-0.70710678,0.70710678,0],[0,0,0,0],[9E9,9E9,9E9,9E9,9E9,9E9]],v36,z1,tADSK27\WObj:=wADSK0;
    MoveL [[1079.27,-37.974,-9.793],[0,-0.70710678,0.70710678,0],[0,0,0,0],[9E9,9E9,9E9,9E9,9E9,9E9]],v36,z1,tADSK27\WObj:=wADSK0;
    MoveL [[1077.144,-38.449,-9.869],[0,-0.70710678,0.70710678,0],[0,0,0,0],[9E9,9E9,9E9,9E9,9E9,9E9]],v36,z1,tADSK27\WObj:=wADSK0;
    MoveL [[1075.325,-39.648,-9.946],[0,-0.70710678,0.70710678,0],[0,0,0,0],[9E9,9E9,9E9,9E9,9E9,9E9]],v36,z1,tADSK27\WObj:=wADSK0;
    MoveL [[1074.051,-41.416,-10.022],[0,-0.70710678,0.70710678,0],[0,0,0,0],[9E9,9E9,9E9,9E9,9E9,9E9]],v36,z1,tADSK27\WObj:=wADSK0;
    MoveL [[1073.488,-43.52,-10.099],[0,-0.70710678,0.70710678,0],[0,0,0,0],[9E9,9E9,9E9,9E9,9E9,9E9]],v36,z1,tADSK27\WObj:=wADSK0;
    MoveL [[1073.709,-45.688,-10.175],[0,-0.70710678,0.70710678,0],[0,0,0,0],[9E9,9E9,9E9,9E9,9E9,9E9]],v36,z1,tADSK27\WObj:=wADSK0;
    MoveL [[1074.686,-47.636,-10.252],[0,-0.70710678,0.70710678,0],[0,0,0,0],[9E9,9E9,9E9,9E9,9E9,9E9]],v36,z1,tADSK27\WObj:=wADSK0;
    MoveL [[1076.291,-49.109,-10.328],[0,-0.70710678,0.70710678,0],[0,0,0,0],[9E9,9E9,9E9,9E9,9E9,9E9]],v36,z1,tADSK27\WObj:=wADSK0;
    MoveL [[1078.315,-49.916,-10.405],[0,-0.70710678,0.70710678,0],[0,0,0,0],[9E9,9E9,9E9,9E9,9E9,9E9]],v36,z1,tADSK27\WObj:=wADSK0;
    MoveL [[1080.493,-49.952,-10.481],[0,-0.70710678,0.70710678,0],[0,0,0,0],[9E9,9E9,9E9,9E9,9E9,9E9]],v36,z1,tADSK27\WObj:=wADSK0;
    MoveL [[1082.542,-49.211,-10.558],[0,-0.70710678,0.70710678,0],[0,0,0,0],[9E9,9E9,9E9,9E9,9E9,9E9]],v36,z1,tADSK27\WObj:=wADSK0;
    MoveL [[1084.195,-47.791,-10.634],[0,-0.70710678,0.70710678,0],[0,0,0,0],[9E9,9E9,9E9,9E9,9E9,9E9]],v36,z1,tADSK27\WObj:=wADSK0;
    MoveL [[1085.235,-45.877,-10.711],[0,-0.70710678,0.70710678,0],[0,0,0,0],[9E9,9E9,9E9,9E9,9E9,9E9]],v36,z1,tADSK27\WObj:=wADSK0;
    MoveL [[1085.527,-43.718,-10.787],[0,-0.70710678,0.70710678,0],[0,0,0,0],[9E9,9E9,9E9,9E9,9E9,9E9]],v36,z1,tADSK27\WObj:=wADSK0;
    MoveL [[1085.033,-41.595,-10.864],[0,-0.70710678,0.70710678,0],[0,0,0,0],[9E9,9E9,9E9,9E9,9E9,9E9]],v36,z1,tADSK27\WObj:=wADSK0;
    MoveL [[1083.817,-39.787,-10.94],[0,-0.70710678,0.70710678,0],[0,0,0,0],[9E9,9E9,9E9,9E9,9E9,9E9]],v36,z1,tADSK27\WObj:=wADSK0;
    MoveL [[1082.039,-38.529,-11.017],[0,-0.70710678,0.70710678,0],[0,0,0,0],[9E9,9E9,9E9,9E9,9E9,9E9]],v36,z1,tADSK27\WObj:=wADSK0;
    MoveL [[1079.929,-37.984,-11.093],[0,-0.70710678,0.70710678,0],[0,0,0,0],[9E9,9E9,9E9,9E9,9E9,9E9]],v36,z1,tADSK27\WObj:=wADSK0;
    MoveL [[1077.763,-38.225,-11.17],[0,-0.70710678,0.70710678,0],[0,0,0,0],[9E9,9E9,9E9,9E9,9E9,9E9]],v36,z1,tADSK27\WObj:=wADSK0;
    MoveL [[1075.824,-39.219,-11.246],[0,-0.70710678,0.70710678,0],[0,0,0,0],[9E9,9E9,9E9,9E9,9E9,9E9]],v36,z1,tADSK27\WObj:=wADSK0;
    MoveL [[1074.365,-40.837,-11.323],[0,-0.70710678,0.70710678,0],[0,0,0,0],[9E9,9E9,9E9,9E9,9E9,9E9]],v36,z1,tADSK27\WObj:=wADSK0;
    MoveL [[1073.576,-42.868,-11.399],[0,-0.70710678,0.70710678,0],[0,0,0,0],[9E9,9E9,9E9,9E9,9E9,9E9]],v36,z1,tADSK27\WObj:=wADSK0;
    MoveL [[1073.56,-45.047,-11.476],[0,-0.70710678,0.70710678,0],[0,0,0,0],[9E9,9E9,9E9,9E9,9E9,9E9]],v36,z1,tADSK27\WObj:=wADSK0;
    MoveL [[1074.318,-47.089,-11.552],[0,-0.70710678,0.70710678,0],[0,0,0,0],[9E9,9E9,9E9,9E9,9E9,9E9]],v36,z1,tADSK27\WObj:=wADSK0;
    MoveL [[1075.753,-48.729,-11.629],[0,-0.70710678,0.70710678,0],[0,0,0,0],[9E9,9E9,9E9,9E9,9E9,9E9]],v36,z1,tADSK27\WObj:=wADSK0;
    MoveL [[1077.677,-49.752,-11.705],[0,-0.70710678,0.70710678,0],[0,0,0,0],[9E9,9E9,9E9,9E9,9E9,9E9]],v36,z1,tADSK27\WObj:=wADSK0;
    MoveL [[1079.839,-50.025,-11.782],[0,-0.70710678,0.70710678,0],[0,0,0,0],[9E9,9E9,9E9,9E9,9E9,9E9]],v36,z1,tADSK27\WObj:=wADSK0;
    MoveL [[1081.956,-49.512,-11.858],[0,-0.70710678,0.70710678,0],[0,0,0,0],[9E9,9E9,9E9,9E9,9E9,9E9]],v36,z1,tADSK27\WObj:=wADSK0;
    MoveL [[1083.754,-48.28,-11.935],[0,-0.70710678,0.70710678,0],[0,0,0,0],[9E9,9E9,9E9,9E9,9E9,9E9]],v36,z1,tADSK27\WObj:=wADSK0;
    MoveL [[1084.996,-46.491,-12.011],[0,-0.70710678,0.70710678,0],[0,0,0,0],[9E9,9E9,9E9,9E9,9E9,9E9]],v36,z1,tADSK27\WObj:=wADSK0;
    MoveL [[1085.522,-44.376,-12.088],[0,-0.70710678,0.70710678,0],[0,0,0,0],[9E9,9E9,9E9,9E9,9E9,9E9]],v36,z1,tADSK27\WObj:=wADSK0;
    MoveL [[1085.262,-42.213,-12.164],[0,-0.70710678,0.70710678,0],[0,0,0,0],[9E9,9E9,9E9,9E9,9E9,9E9]],v36,z1,tADSK27\WObj:=wADSK0;
    MoveL [[1084.251,-40.283,-12.241],[0,-0.70710678,0.70710678,0],[0,0,0,0],[9E9,9E9,9E9,9E9,9E9,9E9]],v36,z1,tADSK27\WObj:=wADSK0;
    MoveL [[1082.62,-38.838,-12.317],[0,-0.70710678,0.70710678,0],[0,0,0,0],[9E9,9E9,9E9,9E9,9E9,9E9]],v36,z1,tADSK27\WObj:=wADSK0;
    MoveL [[1080.582,-38.067,-12.394],[0,-0.70710678,0.70710678,0],[0,0,0,0],[9E9,9E9,9E9,9E9,9E9,9E9]],v36,z1,tADSK27\WObj:=wADSK0;
    MoveL [[1078.403,-38.07,-12.471],[0,-0.70710678,0.70710678,0],[0,0,0,0],[9E9,9E9,9E9,9E9,9E9,9E9]],v36,z1,tADSK27\WObj:=wADSK0;
    MoveL [[1076.368,-38.847,-12.547],[0,-0.70710678,0.70710678,0],[0,0,0,0],[9E9,9E9,9E9,9E9,9E9,9E9]],v36,z1,tADSK27\WObj:=wADSK0;
    MoveL [[1074.741,-40.296,-12.624],[0,-0.70710678,0.70710678,0],[0,0,0,0],[9E9,9E9,9E9,9E9,9E9,9E9]],v36,z1,tADSK27\WObj:=wADSK0;
    MoveL [[1073.735,-42.229,-12.7],[0,-0.70710678,0.70710678,0],[0,0,0,0],[9E9,9E9,9E9,9E9,9E9,9E9]],v36,z1,tADSK27\WObj:=wADSK0;
    MoveL [[1073.481,-44.393,-12.777],[0,-0.70710678,0.70710678,0],[0,0,0,0],[9E9,9E9,9E9,9E9,9E9,9E9]],v36,z1,tADSK27\WObj:=wADSK0;
    MoveL [[1074.013,-46.506,-12.853],[0,-0.70710678,0.70710678,0],[0,0,0,0],[9E9,9E9,9E9,9E9,9E9,9E9]],v36,z1,tADSK27\WObj:=wADSK0;
    MoveL [[1075.26,-48.292,-12.93],[0,-0.70710678,0.70710678,0],[0,0,0,0],[9E9,9E9,9E9,9E9,9E9,9E9]],v36,z1,tADSK27\WObj:=wADSK0;
    MoveL [[1077.061,-49.519,-13.006],[0,-0.70710678,0.70710678,0],[0,0,0,0],[9E9,9E9,9E9,9E9,9E9,9E9]],v36,z1,tADSK27\WObj:=wADSK0;
    MoveL [[1079.18,-50.026,-13.083],[0,-0.70710678,0.70710678,0],[0,0,0,0],[9E9,9E9,9E9,9E9,9E9,9E9]],v36,z1,tADSK27\WObj:=wADSK0;
    MoveL [[1081.341,-49.747,-13.159],[0,-0.70710678,0.70710678,0],[0,0,0,0],[9E9,9E9,9E9,9E9,9E9,9E9]],v36,z1,tADSK27\WObj:=wADSK0;
    MoveL [[1083.262,-48.718,-13.236],[0,-0.70710678,0.70710678,0],[0,0,0,0],[9E9,9E9,9E9,9E9,9E9,9E9]],v36,z1,tADSK27\WObj:=wADSK0;
    MoveL [[1084.692,-47.075,-13.312],[0,-0.70710678,0.70710678,0],[0,0,0,0],[9E9,9E9,9E9,9E9,9E9,9E9]],v36,z1,tADSK27\WObj:=wADSK0;
    MoveL [[1085.445,-45.03,-13.389],[0,-0.70710678,0.70710678,0],[0,0,0,0],[9E9,9E9,9E9,9E9,9E9,9E9]],v36,z1,tADSK27\WObj:=wADSK0;
    MoveL [[1085.423,-42.852,-13.465],[0,-0.70710678,0.70710678,0],[0,0,0,0],[9E9,9E9,9E9,9E9,9E9,9E9]],v36,z1,tADSK27\WObj:=wADSK0;
    MoveL [[1084.628,-40.823,-13.542],[0,-0.70710678,0.70710678,0],[0,0,0,0],[9E9,9E9,9E9,9E9,9E9,9E9]],v36,z1,tADSK27\WObj:=wADSK0;
    MoveL [[1083.164,-39.209,-13.618],[0,-0.70710678,0.70710678,0],[0,0,0,0],[9E9,9E9,9E9,9E9,9E9,9E9]],v36,z1,tADSK27\WObj:=wADSK0;
    MoveL [[1081.223,-38.22,-13.695],[0,-0.70710678,0.70710678,0],[0,0,0,0],[9E9,9E9,9E9,9E9,9E9,9E9]],v36,z1,tADSK27\WObj:=wADSK0;
    MoveL [[1079.057,-37.986,-13.771],[0,-0.70710678,0.70710678,0],[0,0,0,0],[9E9,9E9,9E9,9E9,9E9,9E9]],v36,z1,tADSK27\WObj:=wADSK0;
    MoveL [[1076.948,-38.536,-13.848],[0,-0.70710678,0.70710678,0],[0,0,0,0],[9E9,9E9,9E9,9E9,9E9,9E9]],v36,z1,tADSK27\WObj:=wADSK0;
    MoveL [[1075.173,-39.799,-13.924],[0,-0.70710678,0.70710678,0],[0,0,0,0],[9E9,9E9,9E9,9E9,9E9,9E9]],v36,z1,tADSK27\WObj:=wADSK0;
    MoveL [[1073.963,-41.611,-14.001],[0,-0.70710678,0.70710678,0],[0,0,0,0],[9E9,9E9,9E9,9E9,9E9,9E9]],v36,z1,tADSK27\WObj:=wADSK0;
    MoveL [[1073.474,-43.734,-14.077],[0,-0.70710678,0.70710678,0],[0,0,0,0],[9E9,9E9,9E9,9E9,9E9,9E9]],v36,z1,tADSK27\WObj:=wADSK0;
    MoveL [[1073.772,-45.892,-14.154],[0,-0.70710678,0.70710678,0],[0,0,0,0],[9E9,9E9,9E9,9E9,9E9,9E9]],v36,z1,tADSK27\WObj:=wADSK0;
    MoveL [[1074.818,-47.804,-14.23],[0,-0.70710678,0.70710678,0],[0,0,0,0],[9E9,9E9,9E9,9E9,9E9,9E9]],v36,z1,tADSK27\WObj:=wADSK0;
    MoveL [[1076.474,-49.22,-14.307],[0,-0.70710678,0.70710678,0],[0,0,0,0],[9E9,9E9,9E9,9E9,9E9,9E9]],v36,z1,tADSK27\WObj:=wADSK0;
    MoveL [[1078.525,-49.955,-14.383],[0,-0.70710678,0.70710678,0],[0,0,0,0],[9E9,9E9,9E9,9E9,9E9,9E9]],v36,z1,tADSK27\WObj:=wADSK0;
    MoveL [[1080.704,-49.913,-14.46],[0,-0.70710678,0.70710678,0],[0,0,0,0],[9E9,9E9,9E9,9E9,9E9,9E9]],v36,z1,tADSK27\WObj:=wADSK0;
    MoveL [[1082.725,-49.1,-14.536],[0,-0.70710678,0.70710678,0],[0,0,0,0],[9E9,9E9,9E9,9E9,9E9,9E9]],v36,z1,tADSK27\WObj:=wADSK0;
    MoveL [[1084.326,-47.622,-14.613],[0,-0.70710678,0.70710678,0],[0,0,0,0],[9E9,9E9,9E9,9E9,9E9,9E9]],v36,z1,tADSK27\WObj:=wADSK0;
    MoveL [[1085.298,-45.672,-14.689],[0,-0.70710678,0.70710678,0],[0,0,0,0],[9E9,9E9,9E9,9E9,9E9,9E9]],v36,z1,tADSK27\WObj:=wADSK0;
    MoveL [[1085.513,-43.504,-14.766],[0,-0.70710678,0.70710678,0],[0,0,0,0],[9E9,9E9,9E9,9E9,9E9,9E9]],v36,z1,tADSK27\WObj:=wADSK0;
    MoveL [[1084.944,-41.401,-14.842],[0,-0.70710678,0.70710678,0],[0,0,0,0],[9E9,9E9,9E9,9E9,9E9,9E9]],v36,z1,tADSK27\WObj:=wADSK0;
    MoveL [[1083.665,-39.637,-14.919],[0,-0.70710678,0.70710678,0],[0,0,0,0],[9E9,9E9,9E9,9E9,9E9,9E9]],v36,z1,tADSK27\WObj:=wADSK0;
    MoveL [[1081.843,-38.442,-14.995],[0,-0.70710678,0.70710678,0],[0,0,0,0],[9E9,9E9,9E9,9E9,9E9,9E9]],v36,z1,tADSK27\WObj:=wADSK0;
    MoveL [[1079.715,-37.973,-15.072],[0,-0.70710678,0.70710678,0],[0,0,0,0],[9E9,9E9,9E9,9E9,9E9,9E9]],v36,z1,tADSK27\WObj:=wADSK0;
    MoveL [[1077.559,-38.29,-15.148],[0,-0.70710678,0.70710678,0],[0,0,0,0],[9E9,9E9,9E9,9E9,9E9,9E9]],v36,z1,tADSK27\WObj:=wADSK0;
    MoveL [[1075.657,-39.352,-15.225],[0,-0.70710678,0.70710678,0],[0,0,0,0],[9E9,9E9,9E9,9E9,9E9,9E9]],v36,z1,tADSK27\WObj:=wADSK0;
    MoveL [[1074.256,-41.021,-15.301],[0,-0.70710678,0.70710678,0],[0,0,0,0],[9E9,9E9,9E9,9E9,9E9,9E9]],v36,z1,tADSK27\WObj:=wADSK0;
    MoveL [[1073.54,-43.079,-15.378],[0,-0.70710678,0.70710678,0],[0,0,0,0],[9E9,9E9,9E9,9E9,9E9,9E9]],v36,z1,tADSK27\WObj:=wADSK0;
    MoveL [[1073.6,-45.257,-15.454],[0,-0.70710678,0.70710678,0],[0,0,0,0],[9E9,9E9,9E9,9E9,9E9,9E9]],v36,z1,tADSK27\WObj:=wADSK0;
    MoveL [[1074.431,-47.271,-15.531],[0,-0.70710678,0.70710678,0],[0,0,0,0],[9E9,9E9,9E9,9E9,9E9,9E9]],v36,z1,tADSK27\WObj:=wADSK0;
    MoveL [[1075.923,-48.859,-15.607],[0,-0.70710678,0.70710678,0],[0,0,0,0],[9E9,9E9,9E9,9E9,9E9,9E9]],v36,z1,tADSK27\WObj:=wADSK0;
    MoveL [[1077.882,-49.813,-15.684],[0,-0.70710678,0.70710678,0],[0,0,0,0],[9E9,9E9,9E9,9E9,9E9,9E9]],v36,z1,tADSK27\WObj:=wADSK0;
    MoveL [[1080.052,-50.009,-15.76],[0,-0.70710678,0.70710678,0],[0,0,0,0],[9E9,9E9,9E9,9E9,9E9,9E9]],v36,z1,tADSK27\WObj:=wADSK0;
    MoveL [[1082.15,-49.421,-15.837],[0,-0.70710678,0.70710678,0],[0,0,0,0],[9E9,9E9,9E9,9E9,9E9,9E9]],v36,z1,tADSK27\WObj:=wADSK0;
    MoveL [[1083.903,-48.127,-15.913],[0,-0.70710678,0.70710678,0],[0,0,0,0],[9E9,9E9,9E9,9E9,9E9,9E9]],v36,z1,tADSK27\WObj:=wADSK0;
    MoveL [[1085.081,-46.294,-15.99],[0,-0.70710678,0.70710678,0],[0,0,0,0],[9E9,9E9,9E9,9E9,9E9,9E9]],v36,z1,tADSK27\WObj:=wADSK0;
    MoveL [[1085.531,-44.162,-16.066],[0,-0.70710678,0.70710678,0],[0,0,0,0],[9E9,9E9,9E9,9E9,9E9,9E9]],v36,z1,tADSK27\WObj:=wADSK0;
    MoveL [[1085.195,-42.01,-16.143],[0,-0.70710678,0.70710678,0],[0,0,0,0],[9E9,9E9,9E9,9E9,9E9,9E9]],v36,z1,tADSK27\WObj:=wADSK0;
    MoveL [[1084.116,-40.117,-16.219],[0,-0.70710678,0.70710678,0],[0,0,0,0],[9E9,9E9,9E9,9E9,9E9,9E9]],v36,z1,tADSK27\WObj:=wADSK0;
    MoveL [[1082.435,-38.731,-16.296],[0,-0.70710678,0.70710678,0],[0,0,0,0],[9E9,9E9,9E9,9E9,9E9,9E9]],v36,z1,tADSK27\WObj:=wADSK0;
    MoveL [[1080.371,-38.032,-16.372],[0,-0.70710678,0.70710678,0],[0,0,0,0],[9E9,9E9,9E9,9E9,9E9,9E9]],v36,z1,tADSK27\WObj:=wADSK0;
    MoveL [[1078.194,-38.113,-16.449],[0,-0.70710678,0.70710678,0],[0,0,0,0],[9E9,9E9,9E9,9E9,9E9,9E9]],v36,z1,tADSK27\WObj:=wADSK0;
    MoveL [[1076.187,-38.961,-16.525],[0,-0.70710678,0.70710678,0],[0,0,0,0],[9E9,9E9,9E9,9E9,9E9,9E9]],v36,z1,tADSK27\WObj:=wADSK0;
    MoveL [[1074.612,-40.467,-16.602],[0,-0.70710678,0.70710678,0],[0,0,0,0],[9E9,9E9,9E9,9E9,9E9,9E9]],v36,z1,tADSK27\WObj:=wADSK0;
    MoveL [[1073.676,-42.434,-16.678],[0,-0.70710678,0.70710678,0],[0,0,0,0],[9E9,9E9,9E9,9E9,9E9,9E9]],v36,z1,tADSK27\WObj:=wADSK0;
    MoveL [[1073.499,-44.606,-16.755],[0,-0.70710678,0.70710678,0],[0,0,0,0],[9E9,9E9,9E9,9E9,9E9,9E9]],v36,z1,tADSK27\WObj:=wADSK0;
    MoveL [[1074.105,-46.699,-16.831],[0,-0.70710678,0.70710678,0],[0,0,0,0],[9E9,9E9,9E9,9E9,9E9,9E9]],v36,z1,tADSK27\WObj:=wADSK0;
    MoveL [[1075.415,-48.44,-16.908],[0,-0.70710678,0.70710678,0],[0,0,0,0],[9E9,9E9,9E9,9E9,9E9,9E9]],v36,z1,tADSK27\WObj:=wADSK0;
    MoveL [[1077.258,-49.602,-16.984],[0,-0.70710678,0.70710678,0],[0,0,0,0],[9E9,9E9,9E9,9E9,9E9,9E9]],v36,z1,tADSK27\WObj:=wADSK0;
    MoveL [[1079.394,-50.033,-17.061],[0,-0.70710678,0.70710678,0],[0,0,0,0],[9E9,9E9,9E9,9E9,9E9,9E9]],v36,z1,tADSK27\WObj:=wADSK0;
    MoveL [[1081.543,-49.678,-17.137],[0,-0.70710678,0.70710678,0],[0,0,0,0],[9E9,9E9,9E9,9E9,9E9,9E9]],v36,z1,tADSK27\WObj:=wADSK0;
    MoveL [[1083.427,-48.582,-17.214],[0,-0.70710678,0.70710678,0],[0,0,0,0],[9E9,9E9,9E9,9E9,9E9,9E9]],v36,z1,tADSK27\WObj:=wADSK0;
    MoveL [[1084.798,-46.889,-17.29],[0,-0.70710678,0.70710678,0],[0,0,0,0],[9E9,9E9,9E9,9E9,9E9,9E9]],v36,z1,tADSK27\WObj:=wADSK0;
    MoveL [[1085.478,-44.819,-17.367],[0,-0.70710678,0.70710678,0],[0,0,0,0],[9E9,9E9,9E9,9E9,9E9,9E9]],v36,z1,tADSK27\WObj:=wADSK0;
    MoveL [[1085.378,-42.642,-17.443],[0,-0.70710678,0.70710678,0],[0,0,0,0],[9E9,9E9,9E9,9E9,9E9,9E9]],v36,z1,tADSK27\WObj:=wADSK0;
    MoveL [[1084.512,-40.643,-17.52],[0,-0.70710678,0.70710678,0],[0,0,0,0],[9E9,9E9,9E9,9E9,9E9,9E9]],v36,z1,tADSK27\WObj:=wADSK0;
    MoveL [[1082.992,-39.082,-17.596],[0,-0.70710678,0.70710678,0],[0,0,0,0],[9E9,9E9,9E9,9E9,9E9,9E9]],v36,z1,tADSK27\WObj:=wADSK0;
    MoveL [[1081.017,-38.163,-17.673],[0,-0.70710678,0.70710678,0],[0,0,0,0],[9E9,9E9,9E9,9E9,9E9,9E9]],v36,z1,tADSK27\WObj:=wADSK0;
    MoveL [[1078.843,-38.005,-17.749],[0,-0.70710678,0.70710678,0],[0,0,0,0],[9E9,9E9,9E9,9E9,9E9,9E9]],v36,z1,tADSK27\WObj:=wADSK0;
    MoveL [[1076.756,-38.63,-17.826],[0,-0.70710678,0.70710678,0],[0,0,0,0],[9E9,9E9,9E9,9E9,9E9,9E9]],v36,z1,tADSK27\WObj:=wADSK0;
    MoveL [[1075.027,-39.955,-17.902],[0,-0.70710678,0.70710678,0],[0,0,0,0],[9E9,9E9,9E9,9E9,9E9,9E9]],v36,z1,tADSK27\WObj:=wADSK0;
    MoveL [[1073.881,-41.809,-17.979],[0,-0.70710678,0.70710678,0],[0,0,0,0],[9E9,9E9,9E9,9E9,9E9,9E9]],v36,z1,tADSK27\WObj:=wADSK0;
    MoveL [[1073.469,-43.948,-18.055],[0,-0.70710678,0.70710678,0],[0,0,0,0],[9E9,9E9,9E9,9E9,9E9,9E9]],v36,z1,tADSK27\WObj:=wADSK0;
    MoveL [[1073.843,-46.094,-18.132],[0,-0.70710678,0.70710678,0],[0,0,0,0],[9E9,9E9,9E9,9E9,9E9,9E9]],v36,z1,tADSK27\WObj:=wADSK0;
    MoveL [[1074.956,-47.968,-18.208],[0,-0.70710678,0.70710678,0],[0,0,0,0],[9E9,9E9,9E9,9E9,9E9,9E9]],v36,z1,tADSK27\WObj:=wADSK0;
    MoveL [[1076.661,-49.324,-18.285],[0,-0.70710678,0.70710678,0],[0,0,0,0],[9E9,9E9,9E9,9E9,9E9,9E9]],v36,z1,tADSK27\WObj:=wADSK0;
    MoveL [[1078.737,-49.986,-18.361],[0,-0.70710678,0.70710678,0],[0,0,0,0],[9E9,9E9,9E9,9E9,9E9,9E9]],v36,z1,tADSK27\WObj:=wADSK0;
    MoveL [[1080.913,-49.867,-18.438],[0,-0.70710678,0.70710678,0],[0,0,0,0],[9E9,9E9,9E9,9E9,9E9,9E9]],v36,z1,tADSK27\WObj:=wADSK0;
    MoveL [[1082.904,-48.983,-18.514],[0,-0.70710678,0.70710678,0],[0,0,0,0],[9E9,9E9,9E9,9E9,9E9,9E9]],v36,z1,tADSK27\WObj:=wADSK0;
    MoveL [[1084.451,-47.449,-18.591],[0,-0.70710678,0.70710678,0],[0,0,0,0],[9E9,9E9,9E9,9E9,9E9,9E9]],v36,z1,tADSK27\WObj:=wADSK0;
    MoveL [[1085.353,-45.465,-18.667],[0,-0.70710678,0.70710678,0],[0,0,0,0],[9E9,9E9,9E9,9E9,9E9,9E9]],v36,z1,tADSK27\WObj:=wADSK0;
    MoveL [[1085.491,-43.291,-18.744],[0,-0.70710678,0.70710678,0],[0,0,0,0],[9E9,9E9,9E9,9E9,9E9,9E9]],v36,z1,tADSK27\WObj:=wADSK0;
    MoveL [[1084.848,-41.209,-18.821],[0,-0.70710678,0.70710678,0],[0,0,0,0],[9E9,9E9,9E9,9E9,9E9,9E9]],v36,z1,tADSK27\WObj:=wADSK0;
    MoveL [[1083.508,-39.492,-18.897],[0,-0.70710678,0.70710678,0],[0,0,0,0],[9E9,9E9,9E9,9E9,9E9,9E9]],v36,z1,tADSK27\WObj:=wADSK0;
    MoveL [[1081.644,-38.363,-18.974],[0,-0.70710678,0.70710678,0],[0,0,0,0],[9E9,9E9,9E9,9E9,9E9,9E9]],v36,z1,tADSK27\WObj:=wADSK0;
    MoveL [[1079.501,-37.969,-19.05],[0,-0.70710678,0.70710678,0],[0,0,0,0],[9E9,9E9,9E9,9E9,9E9,9E9]],v36,z1,tADSK27\WObj:=wADSK0;
    ! Cutting Move Starts
    MoveL [[1076.289,-37.969,-19.05],[0,-0.70710678,0.70710678,0],[0,0,0,0],[9E9,9E9,9E9,9E9,9E9,9E9]],v107,z1,tADSK27\WObj:=wADSK0;
    MoveL [[1074.87,-38.349,-19.05],[0,-0.70710678,0.70710678,0],[0,0,0,0],[9E9,9E9,9E9,9E9,9E9,9E9]],v107,z1,tADSK27\WObj:=wADSK0;
    MoveL [[1073.831,-39.389,-19.05],[0,-0.70710678,0.70710678,0],[0,0,0,0],[9E9,9E9,9E9,9E9,9E9,9E9]],v107,z1,tADSK27\WObj:=wADSK0;
    MoveL [[1073.45,-40.808,-19.05],[0,-0.70710678,0.70710678,0],[0,0,0,0],[9E9,9E9,9E9,9E9,9E9,9E9]],v107,z1,tADSK27\WObj:=wADSK0;
    MoveL [[1073.448,-1178.392,-19.05],[0,-0.70710678,0.70710678,0],[0,0,0,0],[9E9,9E9,9E9,9E9,9E9,9E9]],v107,z1,tADSK27\WObj:=wADSK0;
    MoveL [[1073.829,-1179.812,-19.05],[0,-0.70710678,0.70710678,0],[0,0,0,0],[9E9,9E9,9E9,9E9,9E9,9E9]],v107,z1,tADSK27\WObj:=wADSK0;
    MoveL [[1074.868,-1180.851,-19.05],[0,-0.70710678,0.70710678,0],[0,0,0,0],[9E9,9E9,9E9,9E9,9E9,9E9]],v107,z1,tADSK27\WObj:=wADSK0;
    MoveL [[1076.287,-1181.232,-19.05],[0,-0.70710678,0.70710678,0],[0,0,0,0],[9E9,9E9,9E9,9E9,9E9,9E9]],v107,z1,tADSK27\WObj:=wADSK0;
    MoveL [[1082.711,-1181.232,-19.05],[0,-0.70710678,0.70710678,0],[0,0,0,0],[9E9,9E9,9E9,9E9,9E9,9E9]],v107,z1,tADSK27\WObj:=wADSK0;
    MoveL [[1084.13,-1180.851,-19.05],[0,-0.70710678,0.70710678,0],[0,0,0,0],[9E9,9E9,9E9,9E9,9E9,9E9]],v107,z1,tADSK27\WObj:=wADSK0;
    MoveL [[1085.169,-1179.812,-19.05],[0,-0.70710678,0.70710678,0],[0,0,0,0],[9E9,9E9,9E9,9E9,9E9,9E9]],v107,z1,tADSK27\WObj:=wADSK0;
    MoveL [[1085.55,-1178.392,-19.05],[0,-0.70710678,0.70710678,0],[0,0,0,0],[9E9,9E9,9E9,9E9,9E9,9E9]],v107,z1,tADSK27\WObj:=wADSK0;
    MoveL [[1085.552,-40.808,-19.05],[0,-0.70710678,0.70710678,0],[0,0,0,0],[9E9,9E9,9E9,9E9,9E9,9E9]],v107,z1,tADSK27\WObj:=wADSK0;
    MoveL [[1085.171,-39.389,-19.05],[0,-0.70710678,0.70710678,0],[0,0,0,0],[9E9,9E9,9E9,9E9,9E9,9E9]],v107,z1,tADSK27\WObj:=wADSK0;
    MoveL [[1084.132,-38.35,-19.05],[0,-0.70710678,0.70710678,0],[0,0,0,0],[9E9,9E9,9E9,9E9,9E9,9E9]],v107,z1,tADSK27\WObj:=wADSK0;
    MoveL [[1082.712,-37.969,-19.05],[0,-0.70710678,0.70710678,0],[0,0,0,0],[9E9,9E9,9E9,9E9,9E9,9E9]],v107,z1,tADSK27\WObj:=wADSK0;
    MoveL [[1079.501,-37.969,-19.05],[0,-0.70710678,0.70710678,0],[0,0,0,0],[9E9,9E9,9E9,9E9,9E9,9E9]],v107,z1,tADSK27\WObj:=wADSK0;
    ! Link Move Starts
    MoveL [[1077.474,-37.667,-19.05],[0,-0.70710678,0.70710678,0],[0,0,0,0],[9E9,9E9,9E9,9E9,9E9,9E9]],v107,z1,tADSK27\WObj:=wADSK0;
    MoveL [[1075.622,-36.787,-19.05],[0,-0.70710678,0.70710678,0],[0,0,0,0],[9E9,9E9,9E9,9E9,9E9,9E9]],v107,z1,tADSK27\WObj:=wADSK0;
    MoveL [[1074.108,-35.406,-19.05],[0,-0.70710678,0.70710678,0],[0,0,0,0],[9E9,9E9,9E9,9E9,9E9,9E9]],v107,z1,tADSK27\WObj:=wADSK0;
    MoveL [[1073.062,-33.643,-19.05],[0,-0.70710678,0.70710678,0],[0,0,0,0],[9E9,9E9,9E9,9E9,9E9,9E9]],v107,z1,tADSK27\WObj:=wADSK0;
    MoveL [[1072.209,-32.354,-19.05],[0,-0.70710678,0.70710678,0],[0,0,0,0],[9E9,9E9,9E9,9E9,9E9,9E9]],v107,z1,tADSK27\WObj:=wADSK0;
    MoveL [[1070.928,-31.49,-19.05],[0,-0.70710678,0.70710678,0],[0,0,0,0],[9E9,9E9,9E9,9E9,9E9,9E9]],v107,z1,tADSK27\WObj:=wADSK0;
    MoveL [[1069.414,-31.184,-19.05],[0,-0.70710678,0.70710678,0],[0,0,0,0],[9E9,9E9,9E9,9E9,9E9,9E9]],v107,z1,tADSK27\WObj:=wADSK0;
    MoveL [[1067.897,-31.482,-19.05],[0,-0.70710678,0.70710678,0],[0,0,0,0],[9E9,9E9,9E9,9E9,9E9,9E9]],v107,z1,tADSK27\WObj:=wADSK0;
    MoveL [[1066.611,-32.338,-19.05],[0,-0.70710678,0.70710678,0],[0,0,0,0],[9E9,9E9,9E9,9E9,9E9,9E9]],v107,z1,tADSK27\WObj:=wADSK0;
    MoveL [[1065.751,-33.622,-19.05],[0,-0.70710678,0.70710678,0],[0,0,0,0],[9E9,9E9,9E9,9E9,9E9,9E9]],v107,z1,tADSK27\WObj:=wADSK0;
    MoveL [[1065.449,-35.137,-19.05],[0,-0.70710678,0.70710678,0],[0,0,0,0],[9E9,9E9,9E9,9E9,9E9,9E9]],v107,z1,tADSK27\WObj:=wADSK0;
    ! Cutting Move Starts
    MoveL [[1065.448,-1186.394,-19.05],[0,-0.70710678,0.70710678,0],[0,0,0,0],[9E9,9E9,9E9,9E9,9E9,9E9]],v107,z1,tADSK27\WObj:=wADSK0;
    MoveL [[1065.828,-1187.813,-19.05],[0,-0.70710678,0.70710678,0],[0,0,0,0],[9E9,9E9,9E9,9E9,9E9,9E9]],v107,z1,tADSK27\WObj:=wADSK0;
    MoveL [[1066.867,-1188.852,-19.05],[0,-0.70710678,0.70710678,0],[0,0,0,0],[9E9,9E9,9E9,9E9,9E9,9E9]],v107,z1,tADSK27\WObj:=wADSK0;
    MoveL [[1068.286,-1189.233,-19.05],[0,-0.70710678,0.70710678,0],[0,0,0,0],[9E9,9E9,9E9,9E9,9E9,9E9]],v107,z1,tADSK27\WObj:=wADSK0;
    MoveL [[1090.712,-1189.233,-19.05],[0,-0.70710678,0.70710678,0],[0,0,0,0],[9E9,9E9,9E9,9E9,9E9,9E9]],v107,z1,tADSK27\WObj:=wADSK0;
    MoveL [[1092.131,-1188.852,-19.05],[0,-0.70710678,0.70710678,0],[0,0,0,0],[9E9,9E9,9E9,9E9,9E9,9E9]],v107,z1,tADSK27\WObj:=wADSK0;
    MoveL [[1093.17,-1187.813,-19.05],[0,-0.70710678,0.70710678,0],[0,0,0,0],[9E9,9E9,9E9,9E9,9E9,9E9]],v107,z1,tADSK27\WObj:=wADSK0;
    MoveL [[1093.551,-1186.393,-19.05],[0,-0.70710678,0.70710678,0],[0,0,0,0],[9E9,9E9,9E9,9E9,9E9,9E9]],v107,z1,tADSK27\WObj:=wADSK0;
    MoveL [[1093.552,-32.807,-19.05],[0,-0.70710678,0.70710678,0],[0,0,0,0],[9E9,9E9,9E9,9E9,9E9,9E9]],v107,z1,tADSK27\WObj:=wADSK0;
    MoveL [[1093.172,-31.388,-19.05],[0,-0.70710678,0.70710678,0],[0,0,0,0],[9E9,9E9,9E9,9E9,9E9,9E9]],v107,z1,tADSK27\WObj:=wADSK0;
    MoveL [[1092.133,-30.349,-19.05],[0,-0.70710678,0.70710678,0],[0,0,0,0],[9E9,9E9,9E9,9E9,9E9,9E9]],v107,z1,tADSK27\WObj:=wADSK0;
    MoveL [[1090.714,-29.968,-19.05],[0,-0.70710678,0.70710678,0],[0,0,0,0],[9E9,9E9,9E9,9E9,9E9,9E9]],v107,z1,tADSK27\WObj:=wADSK0;
    MoveL [[1068.288,-29.968,-19.05],[0,-0.70710678,0.70710678,0],[0,0,0,0],[9E9,9E9,9E9,9E9,9E9,9E9]],v107,z1,tADSK27\WObj:=wADSK0;
    MoveL [[1066.869,-30.348,-19.05],[0,-0.70710678,0.70710678,0],[0,0,0,0],[9E9,9E9,9E9,9E9,9E9,9E9]],v107,z1,tADSK27\WObj:=wADSK0;
    MoveL [[1065.83,-31.387,-19.05],[0,-0.70710678,0.70710678,0],[0,0,0,0],[9E9,9E9,9E9,9E9,9E9,9E9]],v107,z1,tADSK27\WObj:=wADSK0;
    MoveL [[1065.449,-32.807,-19.05],[0,-0.70710678,0.70710678,0],[0,0,0,0],[9E9,9E9,9E9,9E9,9E9,9E9]],v107,z1,tADSK27\WObj:=wADSK0;
    MoveL [[1065.449,-35.137,-19.05],[0,-0.70710678,0.70710678,0],[0,0,0,0],[9E9,9E9,9E9,9E9,9E9,9E9]],v107,z1,tADSK27\WObj:=wADSK0;
    ! Link Move Starts
    MoveL [[1065.17,-37.021,-19.05],[0,-0.70710678,0.70710678,0],[0,0,0,0],[9E9,9E9,9E9,9E9,9E9,9E9]],v107,z1,tADSK27\WObj:=wADSK0;
    MoveL [[1064.358,-38.743,-19.05],[0,-0.70710678,0.70710678,0],[0,0,0,0],[9E9,9E9,9E9,9E9,9E9,9E9]],v107,z1,tADSK27\WObj:=wADSK0;
    MoveL [[1063.08,-40.156,-19.05],[0,-0.70710678,0.70710678,0],[0,0,0,0],[9E9,9E9,9E9,9E9,9E9,9E9]],v107,z1,tADSK27\WObj:=wADSK0;
    MoveL [[1061.449,-41.138,-19.05],[0,-0.70710678,0.70710678,0],[0,0,0,0],[9E9,9E9,9E9,9E9,9E9,9E9]],v107,z1,tADSK27\WObj:=wADSK0;
    MoveL [[1059.817,-42.12,-19.05],[0,-0.70710678,0.70710678,0],[0,0,0,0],[9E9,9E9,9E9,9E9,9E9,9E9]],v107,z1,tADSK27\WObj:=wADSK0;
    MoveL [[1058.54,-43.532,-19.05],[0,-0.70710678,0.70710678,0],[0,0,0,0],[9E9,9E9,9E9,9E9,9E9,9E9]],v107,z1,tADSK27\WObj:=wADSK0;
    MoveL [[1057.727,-45.255,-19.05],[0,-0.70710678,0.70710678,0],[0,0,0,0],[9E9,9E9,9E9,9E9,9E9,9E9]],v107,z1,tADSK27\WObj:=wADSK0;
    MoveL [[1057.448,-47.138,-19.05],[0,-0.70710678,0.70710678,0],[0,0,0,0],[9E9,9E9,9E9,9E9,9E9,9E9]],v107,z1,tADSK27\WObj:=wADSK0;
    ! Cutting Move Starts
    MoveL [[1057.447,-1194.395,-19.05],[0,-0.70710678,0.70710678,0],[0,0,0,0],[9E9,9E9,9E9,9E9,9E9,9E9]],v107,z1,tADSK27\WObj:=wADSK0;
    MoveL [[1057.827,-1195.814,-19.05],[0,-0.70710678,0.70710678,0],[0,0,0,0],[9E9,9E9,9E9,9E9,9E9,9E9]],v107,z1,tADSK27\WObj:=wADSK0;
    MoveL [[1058.866,-1196.853,-19.05],[0,-0.70710678,0.70710678,0],[0,0,0,0],[9E9,9E9,9E9,9E9,9E9,9E9]],v107,z1,tADSK27\WObj:=wADSK0;
    MoveL [[1060.286,-1197.234,-19.05],[0,-0.70710678,0.70710678,0],[0,0,0,0],[9E9,9E9,9E9,9E9,9E9,9E9]],v107,z1,tADSK27\WObj:=wADSK0;
    MoveL [[1098.713,-1197.234,-19.05],[0,-0.70710678,0.70710678,0],[0,0,0,0],[9E9,9E9,9E9,9E9,9E9,9E9]],v107,z1,tADSK27\WObj:=wADSK0;
    MoveL [[1100.132,-1196.853,-19.05],[0,-0.70710678,0.70710678,0],[0,0,0,0],[9E9,9E9,9E9,9E9,9E9,9E9]],v107,z1,tADSK27\WObj:=wADSK0;
    MoveL [[1101.171,-1195.814,-19.05],[0,-0.70710678,0.70710678,0],[0,0,0,0],[9E9,9E9,9E9,9E9,9E9,9E9]],v107,z1,tADSK27\WObj:=wADSK0;
    MoveL [[1101.552,-1194.395,-19.05],[0,-0.70710678,0.70710678,0],[0,0,0,0],[9E9,9E9,9E9,9E9,9E9,9E9]],v107,z1,tADSK27\WObj:=wADSK0;
    MoveL [[1101.553,-24.807,-19.05],[0,-0.70710678,0.70710678,0],[0,0,0,0],[9E9,9E9,9E9,9E9,9E9,9E9]],v107,z1,tADSK27\WObj:=wADSK0;
    MoveL [[1101.173,-23.387,-19.05],[0,-0.70710678,0.70710678,0],[0,0,0,0],[9E9,9E9,9E9,9E9,9E9,9E9]],v107,z1,tADSK27\WObj:=wADSK0;
    MoveL [[1100.134,-22.348,-19.05],[0,-0.70710678,0.70710678,0],[0,0,0,0],[9E9,9E9,9E9,9E9,9E9,9E9]],v107,z1,tADSK27\WObj:=wADSK0;
    MoveL [[1098.714,-21.968,-19.05],[0,-0.70710678,0.70710678,0],[0,0,0,0],[9E9,9E9,9E9,9E9,9E9,9E9]],v107,z1,tADSK27\WObj:=wADSK0;
    MoveL [[1060.287,-21.967,-19.05],[0,-0.70710678,0.70710678,0],[0,0,0,0],[9E9,9E9,9E9,9E9,9E9,9E9]],v107,z1,tADSK27\WObj:=wADSK0;
    MoveL [[1058.868,-22.347,-19.05],[0,-0.70710678,0.70710678,0],[0,0,0,0],[9E9,9E9,9E9,9E9,9E9,9E9]],v107,z1,tADSK27\WObj:=wADSK0;
    MoveL [[1057.829,-23.386,-19.05],[0,-0.70710678,0.70710678,0],[0,0,0,0],[9E9,9E9,9E9,9E9,9E9,9E9]],v107,z1,tADSK27\WObj:=wADSK0;
    MoveL [[1057.448,-24.806,-19.05],[0,-0.70710678,0.70710678,0],[0,0,0,0],[9E9,9E9,9E9,9E9,9E9,9E9]],v107,z1,tADSK27\WObj:=wADSK0;
    MoveL [[1057.448,-47.138,-19.05],[0,-0.70710678,0.70710678,0],[0,0,0,0],[9E9,9E9,9E9,9E9,9E9,9E9]],v107,z1,tADSK27\WObj:=wADSK0;
    ! Link Move Starts
    MoveL [[1057.169,-49.022,-19.05],[0,-0.70710678,0.70710678,0],[0,0,0,0],[9E9,9E9,9E9,9E9,9E9,9E9]],v107,z1,tADSK27\WObj:=wADSK0;
    MoveL [[1056.357,-50.744,-19.05],[0,-0.70710678,0.70710678,0],[0,0,0,0],[9E9,9E9,9E9,9E9,9E9,9E9]],v107,z1,tADSK27\WObj:=wADSK0;
    MoveL [[1055.08,-52.157,-19.05],[0,-0.70710678,0.70710678,0],[0,0,0,0],[9E9,9E9,9E9,9E9,9E9,9E9]],v107,z1,tADSK27\WObj:=wADSK0;
    MoveL [[1053.448,-53.139,-19.05],[0,-0.70710678,0.70710678,0],[0,0,0,0],[9E9,9E9,9E9,9E9,9E9,9E9]],v107,z1,tADSK27\WObj:=wADSK0;
    MoveL [[1051.816,-54.121,-19.05],[0,-0.70710678,0.70710678,0],[0,0,0,0],[9E9,9E9,9E9,9E9,9E9,9E9]],v107,z1,tADSK27\WObj:=wADSK0;
    MoveL [[1050.539,-55.534,-19.05],[0,-0.70710678,0.70710678,0],[0,0,0,0],[9E9,9E9,9E9,9E9,9E9,9E9]],v107,z1,tADSK27\WObj:=wADSK0;
    MoveL [[1049.726,-57.256,-19.05],[0,-0.70710678,0.70710678,0],[0,0,0,0],[9E9,9E9,9E9,9E9,9E9,9E9]],v107,z1,tADSK27\WObj:=wADSK0;
    MoveL [[1049.447,-59.14,-19.05],[0,-0.70710678,0.70710678,0],[0,0,0,0],[9E9,9E9,9E9,9E9,9E9,9E9]],v107,z1,tADSK27\WObj:=wADSK0;
    ! Cutting Move Starts
    MoveL [[1049.445,-1202.396,-19.05],[0,-0.70710678,0.70710678,0],[0,0,0,0],[9E9,9E9,9E9,9E9,9E9,9E9]],v107,z1,tADSK27\WObj:=wADSK0;
    MoveL [[1049.826,-1203.815,-19.05],[0,-0.70710678,0.70710678,0],[0,0,0,0],[9E9,9E9,9E9,9E9,9E9,9E9]],v107,z1,tADSK27\WObj:=wADSK0;
    MoveL [[1050.865,-1204.854,-19.05],[0,-0.70710678,0.70710678,0],[0,0,0,0],[9E9,9E9,9E9,9E9,9E9,9E9]],v107,z1,tADSK27\WObj:=wADSK0;
    MoveL [[1052.285,-1205.234,-19.05],[0,-0.70710678,0.70710678,0],[0,0,0,0],[9E9,9E9,9E9,9E9,9E9,9E9]],v107,z1,tADSK27\WObj:=wADSK0;
    MoveL [[1106.714,-1205.234,-19.05],[0,-0.70710678,0.70710678,0],[0,0,0,0],[9E9,9E9,9E9,9E9,9E9,9E9]],v107,z1,tADSK27\WObj:=wADSK0;
    MoveL [[1108.133,-1204.854,-19.05],[0,-0.70710678,0.70710678,0],[0,0,0,0],[9E9,9E9,9E9,9E9,9E9,9E9]],v107,z1,tADSK27\WObj:=wADSK0;
    MoveL [[1109.172,-1203.815,-19.05],[0,-0.70710678,0.70710678,0],[0,0,0,0],[9E9,9E9,9E9,9E9,9E9,9E9]],v107,z1,tADSK27\WObj:=wADSK0;
    MoveL [[1109.553,-1202.396,-19.05],[0,-0.70710678,0.70710678,0],[0,0,0,0],[9E9,9E9,9E9,9E9,9E9,9E9]],v107,z1,tADSK27\WObj:=wADSK0;
    MoveL [[1109.555,-16.806,-19.05],[0,-0.70710678,0.70710678,0],[0,0,0,0],[9E9,9E9,9E9,9E9,9E9,9E9]],v107,z1,tADSK27\WObj:=wADSK0;
    MoveL [[1109.174,-15.386,-19.05],[0,-0.70710678,0.70710678,0],[0,0,0,0],[9E9,9E9,9E9,9E9,9E9,9E9]],v107,z1,tADSK27\WObj:=wADSK0;
    MoveL [[1108.135,-14.347,-19.05],[0,-0.70710678,0.70710678,0],[0,0,0,0],[9E9,9E9,9E9,9E9,9E9,9E9]],v107,z1,tADSK27\WObj:=wADSK0;
    MoveL [[1106.715,-13.967,-19.05],[0,-0.70710678,0.70710678,0],[0,0,0,0],[9E9,9E9,9E9,9E9,9E9,9E9]],v107,z1,tADSK27\WObj:=wADSK0;
    MoveL [[1052.286,-13.966,-19.05],[0,-0.70710678,0.70710678,0],[0,0,0,0],[9E9,9E9,9E9,9E9,9E9,9E9]],v107,z1,tADSK27\WObj:=wADSK0;
    MoveL [[1050.867,-14.346,-19.05],[0,-0.70710678,0.70710678,0],[0,0,0,0],[9E9,9E9,9E9,9E9,9E9,9E9]],v107,z1,tADSK27\WObj:=wADSK0;
    MoveL [[1049.828,-15.385,-19.05],[0,-0.70710678,0.70710678,0],[0,0,0,0],[9E9,9E9,9E9,9E9,9E9,9E9]],v107,z1,tADSK27\WObj:=wADSK0;
    MoveL [[1049.447,-16.805,-19.05],[0,-0.70710678,0.70710678,0],[0,0,0,0],[9E9,9E9,9E9,9E9,9E9,9E9]],v107,z1,tADSK27\WObj:=wADSK0;
    MoveL [[1049.447,-59.14,-19.05],[0,-0.70710678,0.70710678,0],[0,0,0,0],[9E9,9E9,9E9,9E9,9E9,9E9]],v107,z1,tADSK27\WObj:=wADSK0;
    ! Link Move Starts
    MoveL [[1049.167,-61.034,-19.05],[0,-0.70710678,0.70710678,0],[0,0,0,0],[9E9,9E9,9E9,9E9,9E9,9E9]],v107,z1,tADSK27\WObj:=wADSK0;
    MoveL [[1048.349,-62.766,-19.05],[0,-0.70710678,0.70710678,0],[0,0,0,0],[9E9,9E9,9E9,9E9,9E9,9E9]],v107,z1,tADSK27\WObj:=wADSK0;
    MoveL [[1047.065,-64.186,-19.05],[0,-0.70710678,0.70710678,0],[0,0,0,0],[9E9,9E9,9E9,9E9,9E9,9E9]],v107,z1,tADSK27\WObj:=wADSK0;
    MoveL [[1045.425,-65.174,-19.05],[0,-0.70710678,0.70710678,0],[0,0,0,0],[9E9,9E9,9E9,9E9,9E9,9E9]],v107,z1,tADSK27\WObj:=wADSK0;
    MoveL [[1043.784,-66.161,-19.05],[0,-0.70710678,0.70710678,0],[0,0,0,0],[9E9,9E9,9E9,9E9,9E9,9E9]],v107,z1,tADSK27\WObj:=wADSK0;
    MoveL [[1042.5,-67.582,-19.05],[0,-0.70710678,0.70710678,0],[0,0,0,0],[9E9,9E9,9E9,9E9,9E9,9E9]],v107,z1,tADSK27\WObj:=wADSK0;
    MoveL [[1041.682,-69.314,-19.05],[0,-0.70710678,0.70710678,0],[0,0,0,0],[9E9,9E9,9E9,9E9,9E9,9E9]],v107,z1,tADSK27\WObj:=wADSK0;
    MoveL [[1041.402,-71.208,-19.05],[0,-0.70710678,0.70710678,0],[0,0,0,0],[9E9,9E9,9E9,9E9,9E9,9E9]],v107,z1,tADSK27\WObj:=wADSK0;
    ! Cutting Move Starts
    MoveL [[1041.4,-1213.278,-19.05],[0,-0.70710678,0.70710678,0],[0,0,0,0],[9E9,9E9,9E9,9E9,9E9,9E9]],v107,z1,tADSK27\WObj:=wADSK0;
    MoveL [[1041.464,-1213.28,-19.05],[0,-0.70710678,0.70710678,0],[0,0,0,0],[9E9,9E9,9E9,9E9,9E9,9E9]],v107,z1,tADSK27\WObj:=wADSK0;
    MoveL [[1117.598,-1213.28,-19.05],[0,-0.70710678,0.70710678,0],[0,0,0,0],[9E9,9E9,9E9,9E9,9E9,9E9]],v107,z1,tADSK27\WObj:=wADSK0;
    MoveL [[1117.6,-5.921,-19.05],[0,-0.70710678,0.70710678,0],[0,0,0,0],[9E9,9E9,9E9,9E9,9E9,9E9]],v107,z1,tADSK27\WObj:=wADSK0;
    MoveL [[1041.402,-5.92,-19.05],[0,-0.70710678,0.70710678,0],[0,0,0,0],[9E9,9E9,9E9,9E9,9E9,9E9]],v107,z1,tADSK27\WObj:=wADSK0;
    MoveL [[1041.402,-71.208,-19.05],[0,-0.70710678,0.70710678,0],[0,0,0,0],[9E9,9E9,9E9,9E9,9E9,9E9]],v107,z1,tADSK27\WObj:=wADSK0;
    ! Lead Out Move Starts
    MoveL [[1041.406,-71.279,-19.048],[0,-0.70710678,0.70710678,0],[0,0,0,0],[9E9,9E9,9E9,9E9,9E9,9E9]],v107,z1,tADSK27\WObj:=wADSK0;
    MoveL [[1041.414,-71.35,-19.042],[0,-0.70710678,0.70710678,0],[0,0,0,0],[9E9,9E9,9E9,9E9,9E9,9E9]],v107,z1,tADSK27\WObj:=wADSK0;
    MoveL [[1041.426,-71.419,-19.032],[0,-0.70710678,0.70710678,0],[0,0,0,0],[9E9,9E9,9E9,9E9,9E9,9E9]],v107,z1,tADSK27\WObj:=wADSK0;
    MoveL [[1041.441,-71.487,-19.018],[0,-0.70710678,0.70710678,0],[0,0,0,0],[9E9,9E9,9E9,9E9,9E9,9E9]],v107,z1,tADSK27\WObj:=wADSK0;
    MoveL [[1041.46,-71.554,-19],[0,-0.70710678,0.70710678,0],[0,0,0,0],[9E9,9E9,9E9,9E9,9E9,9E9]],v107,z1,tADSK27\WObj:=wADSK0;
    MoveL [[1041.483,-71.618,-18.979],[0,-0.70710678,0.70710678,0],[0,0,0,0],[9E9,9E9,9E9,9E9,9E9,9E9]],v107,z1,tADSK27\WObj:=wADSK0;
    MoveL [[1041.508,-71.679,-18.953],[0,-0.70710678,0.70710678,0],[0,0,0,0],[9E9,9E9,9E9,9E9,9E9,9E9]],v107,z1,tADSK27\WObj:=wADSK0;
    MoveL [[1041.536,-71.738,-18.924],[0,-0.70710678,0.70710678,0],[0,0,0,0],[9E9,9E9,9E9,9E9,9E9,9E9]],v107,z1,tADSK27\WObj:=wADSK0;
    MoveL [[1041.566,-71.793,-18.892],[0,-0.70710678,0.70710678,0],[0,0,0,0],[9E9,9E9,9E9,9E9,9E9,9E9]],v107,z1,tADSK27\WObj:=wADSK0;
    MoveL [[1041.598,-71.846,-18.855],[0,-0.70710678,0.70710678,0],[0,0,0,0],[9E9,9E9,9E9,9E9,9E9,9E9]],v107,z1,tADSK27\WObj:=wADSK0;
    MoveL [[1041.631,-71.895,-18.816],[0,-0.70710678,0.70710678,0],[0,0,0,0],[9E9,9E9,9E9,9E9,9E9,9E9]],v107,z1,tADSK27\WObj:=wADSK0;
    MoveL [[1041.665,-71.941,-18.773],[0,-0.70710678,0.70710678,0],[0,0,0,0],[9E9,9E9,9E9,9E9,9E9,9E9]],v107,z1,tADSK27\WObj:=wADSK0;
    MoveL [[1041.7,-71.983,-18.727],[0,-0.70710678,0.70710678,0],[0,0,0,0],[9E9,9E9,9E9,9E9,9E9,9E9]],v107,z1,tADSK27\WObj:=wADSK0;
    MoveL [[1041.734,-72.021,-18.678],[0,-0.70710678,0.70710678,0],[0,0,0,0],[9E9,9E9,9E9,9E9,9E9,9E9]],v107,z1,tADSK27\WObj:=wADSK0;
    MoveL [[1041.768,-72.056,-18.626],[0,-0.70710678,0.70710678,0],[0,0,0,0],[9E9,9E9,9E9,9E9,9E9,9E9]],v107,z1,tADSK27\WObj:=wADSK0;
    MoveL [[1041.802,-72.088,-18.572],[0,-0.70710678,0.70710678,0],[0,0,0,0],[9E9,9E9,9E9,9E9,9E9,9E9]],v107,z1,tADSK27\WObj:=wADSK0;
    MoveL [[1041.834,-72.116,-18.515],[0,-0.70710678,0.70710678,0],[0,0,0,0],[9E9,9E9,9E9,9E9,9E9,9E9]],v107,z1,tADSK27\WObj:=wADSK0;
    MoveL [[1041.864,-72.142,-18.456],[0,-0.70710678,0.70710678,0],[0,0,0,0],[9E9,9E9,9E9,9E9,9E9,9E9]],v107,z1,tADSK27\WObj:=wADSK0;
    MoveL [[1041.893,-72.164,-18.394],[0,-0.70710678,0.70710678,0],[0,0,0,0],[9E9,9E9,9E9,9E9,9E9,9E9]],v107,z1,tADSK27\WObj:=wADSK0;
    MoveL [[1041.919,-72.183,-18.331],[0,-0.70710678,0.70710678,0],[0,0,0,0],[9E9,9E9,9E9,9E9,9E9,9E9]],v107,z1,tADSK27\WObj:=wADSK0;
    MoveL [[1041.943,-72.2,-18.266],[0,-0.70710678,0.70710678,0],[0,0,0,0],[9E9,9E9,9E9,9E9,9E9,9E9]],v107,z1,tADSK27\WObj:=wADSK0;
    MoveL [[1041.964,-72.214,-18.199],[0,-0.70710678,0.70710678,0],[0,0,0,0],[9E9,9E9,9E9,9E9,9E9,9E9]],v107,z1,tADSK27\WObj:=wADSK0;
    MoveL [[1041.982,-72.226,-18.132],[0,-0.70710678,0.70710678,0],[0,0,0,0],[9E9,9E9,9E9,9E9,9E9,9E9]],v107,z1,tADSK27\WObj:=wADSK0;
    MoveL [[1041.997,-72.235,-18.063],[0,-0.70710678,0.70710678,0],[0,0,0,0],[9E9,9E9,9E9,9E9,9E9,9E9]],v107,z1,tADSK27\WObj:=wADSK0;
    MoveL [[1042.009,-72.242,-17.993],[0,-0.70710678,0.70710678,0],[0,0,0,0],[9E9,9E9,9E9,9E9,9E9,9E9]],v107,z1,tADSK27\WObj:=wADSK0;
    MoveL [[1042.018,-72.247,-17.922],[0,-0.70710678,0.70710678,0],[0,0,0,0],[9E9,9E9,9E9,9E9,9E9,9E9]],v107,z1,tADSK27\WObj:=wADSK0;
    MoveL [[1042.023,-72.25,-17.851],[0,-0.70710678,0.70710678,0],[0,0,0,0],[9E9,9E9,9E9,9E9,9E9,9E9]],v107,z1,tADSK27\WObj:=wADSK0;
    MoveL [[1042.025,-72.251,-17.78],[0,-0.70710678,0.70710678,0],[0,0,0,0],[9E9,9E9,9E9,9E9,9E9,9E9]],v107,z1,tADSK27\WObj:=wADSK0;
    ! Rapid Move Starts
    MoveL [[1042.025,-72.251,113.7],[0,-0.70710678,0.70710678,0],[0,0,0,0],[9E9,9E9,9E9,9E9,9E9,9E9]],v333,z1,tADSK27\WObj:=wADSK0;
    MoveL [[474.897,-1171.775,113.7],[0,-0.70710678,0.70710678,0],[0,0,0,0],[9E9,9E9,9E9,9E9,9E9,9E9]],v333,z1,tADSK27\WObj:=wADSK0;
    MoveL [[474.897,-1171.775,20.05],[0,-0.70710678,0.70710678,0],[0,0,0,0],[9E9,9E9,9E9,9E9,9E9,9E9]],v333,z1,tADSK27\WObj:=wADSK0;
    ! Lead In Move Starts
    MoveL [[474.897,-1171.775,14.604],[0,-0.70710678,0.70710678,0],[0,0,0,0],[9E9,9E9,9E9,9E9,9E9,9E9]],v107,z1,tADSK27\WObj:=wADSK0;
    MoveL [[474.896,-1171.774,14.535],[0,-0.70710678,0.70710678,0],[0,0,0,0],[9E9,9E9,9E9,9E9,9E9,9E9]],v36,z1,tADSK27\WObj:=wADSK0;
    MoveL [[474.892,-1171.769,14.465],[0,-0.70710678,0.70710678,0],[0,0,0,0],[9E9,9E9,9E9,9E9,9E9,9E9]],v36,z1,tADSK27\WObj:=wADSK0;
    MoveL [[474.887,-1171.761,14.396],[0,-0.70710678,0.70710678,0],[0,0,0,0],[9E9,9E9,9E9,9E9,9E9,9E9]],v36,z1,tADSK27\WObj:=wADSK0;
    MoveL [[474.879,-1171.75,14.328],[0,-0.70710678,0.70710678,0],[0,0,0,0],[9E9,9E9,9E9,9E9,9E9,9E9]],v36,z1,tADSK27\WObj:=wADSK0;
    MoveL [[474.87,-1171.736,14.26],[0,-0.70710678,0.70710678,0],[0,0,0,0],[9E9,9E9,9E9,9E9,9E9,9E9]],v36,z1,tADSK27\WObj:=wADSK0;
    MoveL [[474.858,-1171.719,14.194],[0,-0.70710678,0.70710678,0],[0,0,0,0],[9E9,9E9,9E9,9E9,9E9,9E9]],v36,z1,tADSK27\WObj:=wADSK0;
    MoveL [[474.844,-1171.699,14.128],[0,-0.70710678,0.70710678,0],[0,0,0,0],[9E9,9E9,9E9,9E9,9E9,9E9]],v36,z1,tADSK27\WObj:=wADSK0;
    MoveL [[474.828,-1171.677,14.065],[0,-0.70710678,0.70710678,0],[0,0,0,0],[9E9,9E9,9E9,9E9,9E9,9E9]],v36,z1,tADSK27\WObj:=wADSK0;
    MoveL [[474.81,-1171.651,14.002],[0,-0.70710678,0.70710678,0],[0,0,0,0],[9E9,9E9,9E9,9E9,9E9,9E9]],v36,z1,tADSK27\WObj:=wADSK0;
    MoveL [[474.789,-1171.623,13.942],[0,-0.70710678,0.70710678,0],[0,0,0,0],[9E9,9E9,9E9,9E9,9E9,9E9]],v36,z1,tADSK27\WObj:=wADSK0;
    MoveL [[474.767,-1171.593,13.884],[0,-0.70710678,0.70710678,0],[0,0,0,0],[9E9,9E9,9E9,9E9,9E9,9E9]],v36,z1,tADSK27\WObj:=wADSK0;
    MoveL [[474.742,-1171.56,13.827],[0,-0.70710678,0.70710678,0],[0,0,0,0],[9E9,9E9,9E9,9E9,9E9,9E9]],v36,z1,tADSK27\WObj:=wADSK0;
    MoveL [[474.716,-1171.524,13.773],[0,-0.70710678,0.70710678,0],[0,0,0,0],[9E9,9E9,9E9,9E9,9E9,9E9]],v36,z1,tADSK27\WObj:=wADSK0;
    MoveL [[474.687,-1171.487,13.722],[0,-0.70710678,0.70710678,0],[0,0,0,0],[9E9,9E9,9E9,9E9,9E9,9E9]],v36,z1,tADSK27\WObj:=wADSK0;
    MoveL [[474.656,-1171.448,13.673],[0,-0.70710678,0.70710678,0],[0,0,0,0],[9E9,9E9,9E9,9E9,9E9,9E9]],v36,z1,tADSK27\WObj:=wADSK0;
    MoveL [[474.624,-1171.407,13.627],[0,-0.70710678,0.70710678,0],[0,0,0,0],[9E9,9E9,9E9,9E9,9E9,9E9]],v36,z1,tADSK27\WObj:=wADSK0;
    MoveL [[474.589,-1171.365,13.584],[0,-0.70710678,0.70710678,0],[0,0,0,0],[9E9,9E9,9E9,9E9,9E9,9E9]],v36,z1,tADSK27\WObj:=wADSK0;
    MoveL [[474.553,-1171.32,13.544],[0,-0.70710678,0.70710678,0],[0,0,0,0],[9E9,9E9,9E9,9E9,9E9,9E9]],v36,z1,tADSK27\WObj:=wADSK0;
    MoveL [[474.515,-1171.275,13.508],[0,-0.70710678,0.70710678,0],[0,0,0,0],[9E9,9E9,9E9,9E9,9E9,9E9]],v36,z1,tADSK27\WObj:=wADSK0;
    MoveL [[474.475,-1171.229,13.474],[0,-0.70710678,0.70710678,0],[0,0,0,0],[9E9,9E9,9E9,9E9,9E9,9E9]],v36,z1,tADSK27\WObj:=wADSK0;
    MoveL [[474.434,-1171.182,13.444],[0,-0.70710678,0.70710678,0],[0,0,0,0],[9E9,9E9,9E9,9E9,9E9,9E9]],v36,z1,tADSK27\WObj:=wADSK0;
    MoveL [[474.391,-1171.134,13.417],[0,-0.70710678,0.70710678,0],[0,0,0,0],[9E9,9E9,9E9,9E9,9E9,9E9]],v36,z1,tADSK27\WObj:=wADSK0;
    MoveL [[474.346,-1171.085,13.394],[0,-0.70710678,0.70710678,0],[0,0,0,0],[9E9,9E9,9E9,9E9,9E9,9E9]],v36,z1,tADSK27\WObj:=wADSK0;
    MoveL [[474.301,-1171.036,13.375],[0,-0.70710678,0.70710678,0],[0,0,0,0],[9E9,9E9,9E9,9E9,9E9,9E9]],v36,z1,tADSK27\WObj:=wADSK0;
    MoveL [[474.254,-1170.987,13.359],[0,-0.70710678,0.70710678,0],[0,0,0,0],[9E9,9E9,9E9,9E9,9E9,9E9]],v36,z1,tADSK27\WObj:=wADSK0;
    MoveL [[474.206,-1170.938,13.347],[0,-0.70710678,0.70710678,0],[0,0,0,0],[9E9,9E9,9E9,9E9,9E9,9E9]],v36,z1,tADSK27\WObj:=wADSK0;
    MoveL [[474.157,-1170.889,13.339],[0,-0.70710678,0.70710678,0],[0,0,0,0],[9E9,9E9,9E9,9E9,9E9,9E9]],v36,z1,tADSK27\WObj:=wADSK0;
